;FLAVOR:Marlin
;TIME:375
;Filament used: 0.178204m
;Layer height: 0.2

;Generated with Cura_SteamEngine master

;Kodak Start G-code
G21                             ;Metric units
G90                             ;Absolute coordinates mode
M82                             ;Absolute extrusion mode
M107                            ;Turn off layer fans
M140 S60                        ;Start bed warm up
M104 S175 T1                    ;Start T1 warm up
M109 S175 T0                    ;
G28                             ;Home and auto-leveling
T0
G1 X200.0 Y0.0 F7200            ;Purge position
M109 S215 T0                    ;Tool warm up
M190 S60                        ;
G92 E0.0                        ;
G1 F200 E15.0                   ;Purge the tool
G1 X175.0 Z0.5 F7200            ; 
G1 X150.0 Z-0.5                 ;
G92 E0.0                        ;
G1 F200 E-4.5                   ;
;Kodak Start G-code

;LAYER_COUNT:5
;LAYER:0
M107
M204 S3000
G0 F2700 X110.9 Y110.9 Z0.2
M204 S2250
;TYPE:WALL-INNER
G1 F4800 E0
G1 F900 X89.1 Y110.9 E1.21812
G1 X89.1 Y89.1 E2.43624
G1 X110.9 Y89.1 E3.65436
G1 X110.9 Y110.9 E4.87248
M204 S3000
G0 F2700 X111.54 Y111.54
M204 S2250
G1 F900 X88.46 Y111.54 E6.16212
G1 X88.46 Y88.46 E7.45176
G1 X111.54 Y88.46 E8.7414
G1 X111.54 Y111.54 E10.03104
M204 S3000
G0 F2700 X112.18 Y112.18
M204 S2250
;TYPE:WALL-OUTER
G1 F900 X87.82 Y112.18 E11.39221
G1 X87.82 Y87.82 E12.75337
G1 X112.18 Y87.82 E14.11454
G1 X112.18 Y112.18 E15.4757
M204 S3000
G0 F2700 X111.98 Y112.18
G0 X111.47 Y111.47
G0 X110.27 Y110.27
M204 S2250
;TYPE:SKIN
G1 F900 X89.73 Y110.27 E16.62342
G1 X89.73 Y89.73 E17.77113
G1 X110.27 Y89.73 E18.91884
G1 X110.27 Y110.27 E20.06656
M204 S3000
G0 F2700 X100.03 Y100.03
M204 S2250
G1 F900 X99.97 Y100.03 E20.06991
G1 X99.97 Y99.97 E20.07326
G1 X100.03 Y99.97 E20.07662
G1 X100.03 Y100.03 E20.07997
M204 S3000
G0 F2700 X100.67 Y100.67
M204 S2250
G1 F900 X99.33 Y100.67 E20.15484
G1 X99.33 Y99.33 E20.22972
G1 X100.67 Y99.33 E20.30459
G1 X100.67 Y100.67 E20.37947
M204 S3000
G0 F2700 X101.31 Y101.31
M204 S2250
G1 F900 X98.69 Y101.31 E20.52587
G1 X98.69 Y98.69 E20.67226
G1 X101.31 Y98.69 E20.81866
G1 X101.31 Y101.31 E20.96506
M204 S3000
G0 F2700 X101.95 Y101.95
M204 S2250
G1 F900 X98.05 Y101.95 E21.18298
G1 X98.05 Y98.05 E21.4009
G1 X101.95 Y98.05 E21.61882
G1 X101.95 Y101.95 E21.83674
M204 S3000
G0 F2700 X102.59 Y102.59
M204 S2250
G1 F900 X97.41 Y102.59 E22.12619
G1 X97.41 Y97.41 E22.41563
G1 X102.59 Y97.41 E22.70507
G1 X102.59 Y102.59 E22.99451
M204 S3000
G0 F2700 X103.23 Y103.23
M204 S2250
G1 F900 X96.77 Y103.23 E23.35548
G1 X96.77 Y96.77 E23.71645
G1 X103.23 Y96.77 E24.07741
G1 X103.23 Y103.23 E24.43838
M204 S3000
G0 F2700 X103.87 Y103.87
M204 S2250
G1 F900 X96.13 Y103.87 E24.87086
G1 X96.13 Y96.13 E25.30335
G1 X103.87 Y96.13 E25.73584
G1 X103.87 Y103.87 E26.16833
M204 S3000
G0 F2700 X104.51 Y104.51
M204 S2250
G1 F900 X95.49 Y104.51 E26.67234
G1 X95.49 Y95.49 E27.17635
G1 X104.51 Y95.49 E27.68036
G1 X104.51 Y104.51 E28.18437
M204 S3000
G0 F2700 X105.15 Y105.15
M204 S2250
G1 F900 X94.85 Y105.15 E28.75991
G1 X94.85 Y94.85 E29.33544
G1 X105.15 Y94.85 E29.91097
G1 X105.15 Y105.15 E30.48651
M204 S3000
G0 F2700 X105.79 Y105.79
M204 S2250
G1 F900 X94.21 Y105.79 E31.13356
G1 X94.21 Y94.21 E31.78062
G1 X105.79 Y94.21 E32.42767
G1 X105.79 Y105.79 E33.07473
M204 S3000
G0 F2700 X106.43 Y106.43
M204 S2250
G1 F900 X93.57 Y106.43 E33.79331
G1 X93.57 Y93.57 E34.51189
G1 X106.43 Y93.57 E35.23047
G1 X106.43 Y106.43 E35.94904
M204 S3000
G0 F2700 X107.07 Y107.07
M204 S2250
G1 F900 X92.93 Y107.07 E36.73915
G1 X92.93 Y92.93 E37.52925
G1 X107.07 Y92.93 E38.31935
G1 X107.07 Y107.07 E39.10945
M204 S3000
G0 F2700 X107.71 Y107.71
M204 S2250
G1 F900 X92.29 Y107.71 E39.97107
G1 X92.29 Y92.29 E40.8327
G1 X107.71 Y92.29 E41.69432
G1 X107.71 Y107.71 E42.55594
M204 S3000
G0 F2700 X108.35 Y108.35
M204 S2250
G1 F900 X91.65 Y108.35 E43.48909
G1 X91.65 Y91.65 E44.42224
G1 X108.35 Y91.65 E45.35538
G1 X108.35 Y108.35 E46.28853
M204 S3000
G0 F2700 X108.99 Y108.99
M204 S2250
G1 F900 X91.01 Y108.99 E47.2932
G1 X91.01 Y91.01 E48.29787
G1 X108.99 Y91.01 E49.30254
G1 X108.99 Y108.99 E50.3072
M204 S3000
G0 F2700 X109.63 Y109.63
M204 S2250
G1 F900 X90.37 Y109.63 E51.3834
G1 X90.37 Y90.37 E52.45959
G1 X109.63 Y90.37 E53.53578
G1 X109.63 Y109.63 E54.61197
M204 S3000
G1 F4800 E50.11197
G1 F300 Z1.2
G0 F2700 X109.63 Y109.63 Z1.2
G0 X118.209 Y125.677
M204 S2250
;TYPE:SUPPORT
G1 F300 Z0.2
G1 F4800 E54.61197
G1 F900 X119.088 Y125.411 E54.66329
G1 X120 Y125.321 E54.71449
G1 X120.911 Y125.411 E54.76565
G1 X121.79 Y125.677 E54.81696
G1 X122.599 Y126.11 E54.86823
G1 X123.308 Y126.691 E54.91945
G1 X123.889 Y127.4 E54.97067
G1 X124.322 Y128.209 E55.02194
G1 X124.588 Y129.088 E55.07326
G1 X124.679 Y130 E55.12447
G1 X124.588 Y130.911 E55.17563
G1 X124.322 Y131.79 E55.22695
G1 X123.889 Y132.599 E55.27822
G1 X123.308 Y133.308 E55.32944
G1 X122.599 Y133.889 E55.38066
G1 X121.79 Y134.322 E55.43193
G1 X120.911 Y134.588 E55.48325
G1 X120 Y134.679 E55.5344
G1 X119.088 Y134.588 E55.58562
G1 X118.209 Y134.322 E55.63693
G1 X117.4 Y133.889 E55.6882
G1 X116.691 Y133.308 E55.73942
G1 X116.11 Y132.599 E55.79064
G1 X115.677 Y131.79 E55.84191
G1 X115.411 Y130.911 E55.89323
G1 X115.321 Y130 E55.94438
G1 X115.411 Y129.088 E55.99559
G1 X115.677 Y128.209 E56.0469
G1 X116.11 Y127.4 E56.09818
G1 X116.691 Y126.691 E56.1494
G1 X117.4 Y126.11 E56.20062
G1 X118.209 Y125.677 E56.25189
M204 S3000
G0 F2700 X118.434 Y126.215
M204 S2250
G1 F900 X119.197 Y125.984 E56.29643
G1 X120 Y125.905 E56.34152
G1 X120.802 Y125.984 E56.38655
G1 X121.565 Y126.215 E56.43109
G1 X122.274 Y126.594 E56.47602
G1 X122.895 Y127.104 E56.52092
G1 X123.405 Y127.725 E56.56582
G1 X123.784 Y128.434 E56.61074
G1 X124.015 Y129.197 E56.65529
G1 X124.095 Y130 E56.70038
G1 X124.015 Y130.802 E56.74541
G1 X123.784 Y131.565 E56.78996
G1 X123.405 Y132.274 E56.83488
G1 X122.895 Y132.895 E56.87978
G1 X122.274 Y133.405 E56.92468
G1 X121.565 Y133.784 E56.96961
G1 X120.802 Y134.015 E57.01415
G1 X120 Y134.095 E57.05919
G1 X119.197 Y134.015 E57.10428
G1 X118.434 Y133.784 E57.14882
G1 X117.725 Y133.405 E57.19375
G1 X117.104 Y132.895 E57.23865
G1 X116.594 Y132.274 E57.28355
G1 X116.215 Y131.565 E57.32847
G1 X115.984 Y130.802 E57.37302
G1 X115.905 Y130 E57.41805
G1 X115.984 Y129.197 E57.46313
G1 X116.215 Y128.434 E57.50768
G1 X116.594 Y127.725 E57.5526
G1 X117.104 Y127.104 E57.5975
G1 X117.725 Y126.594 E57.6424
G1 X118.434 Y126.215 E57.68732
M204 S3000
G0 F2700 X118.677 Y126.81
M204 S2250
G1 F900 X119.323 Y126.615 E57.72503
G1 X120 Y126.548 E57.76304
G1 X120.676 Y126.615 E57.801
G1 X121.322 Y126.81 E57.83871
G1 X121.915 Y127.127 E57.87628
G1 X122.44 Y127.559 E57.91427
G1 X122.872 Y128.084 E57.95226
G1 X123.189 Y128.677 E57.98983
G1 X123.384 Y129.324 E58.02759
G1 X123.452 Y129.999 E58.0655
G1 X123.384 Y130.676 E58.10352
G1 X123.189 Y131.322 E58.14122
G1 X122.872 Y131.915 E58.1788
G1 X122.44 Y132.44 E58.21679
G1 X121.915 Y132.872 E58.25478
G1 X121.322 Y133.189 E58.29235
G1 X120.676 Y133.384 E58.33005
G1 X119.999 Y133.452 E58.36807
G1 X119.324 Y133.384 E58.40598
G1 X118.677 Y133.189 E58.44374
G1 X118.084 Y132.872 E58.48131
G1 X117.559 Y132.44 E58.5193
G1 X117.127 Y131.915 E58.55729
G1 X116.81 Y131.322 E58.59486
G1 X116.615 Y130.676 E58.63257
G1 X116.548 Y130 E58.67053
G1 X116.615 Y129.323 E58.70854
G1 X116.81 Y128.677 E58.74625
G1 X117.127 Y128.084 E58.78382
G1 X117.559 Y127.559 E58.82181
G1 X118.084 Y127.127 E58.8598
G1 X118.677 Y126.81 E58.89737
M204 S3000
G0 F2700 X118.92 Y127.405
M204 S2250
G1 F900 X119.449 Y127.246 E58.92824
G1 X120 Y127.191 E58.95918
G1 X120.55 Y127.246 E58.99006
G1 X121.079 Y127.405 E59.02093
G1 X121.556 Y127.661 E59.05118
G1 X121.985 Y128.014 E59.08222
G1 X122.338 Y128.443 E59.11326
G1 X122.594 Y128.92 E59.14351
G1 X122.753 Y129.45 E59.17443
G1 X122.809 Y129.999 E59.20527
G1 X122.753 Y130.55 E59.23621
G1 X122.594 Y131.079 E59.26708
G1 X122.338 Y131.556 E59.29733
G1 X121.985 Y131.985 E59.32837
G1 X121.556 Y132.338 E59.35942
G1 X121.079 Y132.594 E59.38966
G1 X120.55 Y132.753 E59.42053
G1 X119.999 Y132.809 E59.45148
G1 X119.45 Y132.753 E59.48231
G1 X118.92 Y132.594 E59.51323
G1 X118.443 Y132.338 E59.54348
G1 X118.014 Y131.985 E59.57452
G1 X117.661 Y131.556 E59.60557
G1 X117.405 Y131.079 E59.63582
G1 X117.246 Y130.55 E59.66668
G1 X117.191 Y129.999 E59.69762
G1 X117.246 Y129.449 E59.72851
G1 X117.405 Y128.92 E59.75937
G1 X117.661 Y128.443 E59.78962
G1 X118.014 Y128.014 E59.82067
G1 X118.443 Y127.661 E59.85171
G1 X118.92 Y127.405 E59.88196
M204 S3000
G0 F2700 X119.167 Y127.999
M104 S205
M204 S2250
G1 F900 X119.573 Y127.877 E59.90565
G1 X120 Y127.834 E59.92963
G1 X120.426 Y127.877 E59.95355
G1 X120.832 Y127.999 E59.97724
G1 X121.199 Y128.196 E60.00051
G1 X121.53 Y128.469 E60.02449
G1 X121.803 Y128.8 E60.04846
G1 X122 Y129.167 E60.07174
G1 X122.122 Y129.574 E60.09548
G1 X122.165 Y129.999 E60.11935
G1 X122.122 Y130.426 E60.14333
G1 X122 Y130.832 E60.16702
G1 X121.803 Y131.199 E60.19029
G1 X121.53 Y131.53 E60.21427
G1 X121.199 Y131.803 E60.23824
G1 X120.832 Y132 E60.26151
G1 X120.426 Y132.122 E60.2852
G1 X119.999 Y132.165 E60.30918
G1 X119.574 Y132.122 E60.33305
G1 X119.167 Y132 E60.35679
G1 X118.8 Y131.803 E60.38007
G1 X118.469 Y131.53 E60.40404
G1 X118.196 Y131.199 E60.42802
G1 X117.999 Y130.832 E60.45129
G1 X117.877 Y130.426 E60.47498
G1 X117.834 Y129.999 E60.49896
G1 X117.877 Y129.573 E60.52288
G1 X117.999 Y129.167 E60.54657
G1 X118.196 Y128.8 E60.56985
G1 X118.469 Y128.469 E60.59382
G1 X118.8 Y128.196 E60.6178
G1 X119.167 Y127.999 E60.64107
M204 S3000
G0 F2700 X119.414 Y128.593
M204 S2250
G1 F900 X119.697 Y128.508 E60.65758
G1 X120 Y128.477 E60.6746
G1 X120.302 Y128.508 E60.69156
G1 X120.585 Y128.593 E60.70808
G1 X120.841 Y128.731 E60.72433
G1 X121.075 Y128.924 E60.74127
G1 X121.268 Y129.158 E60.75822
G1 X121.406 Y129.414 E60.77447
G1 X121.491 Y129.698 E60.79104
G1 X121.522 Y129.999 E60.80795
G1 X121.491 Y130.302 E60.82497
G1 X121.406 Y130.585 E60.84148
G1 X121.268 Y130.841 E60.85773
G1 X121.075 Y131.075 E60.87468
G1 X120.841 Y131.268 E60.89162
G1 X120.585 Y131.406 E60.90788
G1 X120.302 Y131.491 E60.92439
G1 X119.999 Y131.522 E60.94141
G1 X119.698 Y131.491 E60.95831
G1 X119.414 Y131.406 E60.97488
G1 X119.158 Y131.268 E60.99113
G1 X118.924 Y131.075 E61.00808
G1 X118.731 Y130.841 E61.02503
G1 X118.593 Y130.585 E61.04128
G1 X118.508 Y130.302 E61.05779
G1 X118.477 Y129.999 E61.07481
G1 X118.508 Y129.697 E61.09177
G1 X118.593 Y129.414 E61.10828
G1 X118.731 Y129.158 E61.12453
G1 X118.924 Y128.924 E61.14148
G1 X119.158 Y128.731 E61.15843
G1 X119.414 Y128.593 E61.17468
M204 S3000
G0 F2700 X119.66 Y129.188
M204 S2250
G1 F900 X119.821 Y129.139 E61.18408
G1 X120 Y129.121 E61.19414
G1 X120.178 Y129.139 E61.20413
G1 X120.339 Y129.188 E61.21354
G1 X120.481 Y129.264 E61.22254
G1 X120.62 Y129.379 E61.23262
G1 X120.735 Y129.518 E61.2427
G1 X120.811 Y129.659 E61.25165
G1 X120.86 Y129.822 E61.26116
G1 X120.878 Y129.999 E61.2711
G1 X120.86 Y130.178 E61.28115
G1 X120.811 Y130.339 E61.29056
G1 X120.735 Y130.481 E61.29955
G1 X120.62 Y130.62 E61.30964
G1 X120.481 Y130.735 E61.31972
G1 X120.339 Y130.811 E61.32872
G1 X120.178 Y130.86 E61.33812
G1 X120 Y130.878 E61.34812
G1 X119.822 Y130.86 E61.35811
G1 X119.659 Y130.811 E61.36762
G1 X119.518 Y130.735 E61.37657
G1 X119.379 Y130.62 E61.38665
G1 X119.264 Y130.481 E61.39673
G1 X119.188 Y130.339 E61.40573
G1 X119.139 Y130.178 E61.41514
G1 X119.121 Y129.999 E61.42519
G1 X119.139 Y129.821 E61.43519
G1 X119.188 Y129.66 E61.44459
G1 X119.264 Y129.518 E61.45359
G1 X119.379 Y129.379 E61.46367
G1 X119.518 Y129.264 E61.47375
G1 X119.66 Y129.188 E61.48275
M204 S3000
G0 F2700 X119.907 Y129.781
M204 S2250
G1 F900 X119.945 Y129.77 E61.48496
G1 X120 Y129.764 E61.48805
G1 X120.054 Y129.77 E61.49109
G1 X120.092 Y129.781 E61.4933
G1 X120.122 Y129.797 E61.4952
G1 X120.165 Y129.834 E61.49837
G1 X120.202 Y129.878 E61.50158
G1 X120.217 Y129.905 E61.50331
G1 X120.229 Y129.946 E61.50569
G1 X120.234 Y130 E61.50872
G1 X120.229 Y130.054 E61.51175
G1 X120.218 Y130.092 E61.51396
G1 X120.202 Y130.122 E61.51586
G1 X120.165 Y130.165 E61.51903
G1 X120.122 Y130.202 E61.5222
G1 X120.092 Y130.218 E61.5241
G1 X120.054 Y130.229 E61.52631
G1 X120 Y130.235 E61.52935
G1 X119.947 Y130.229 E61.53233
G1 X119.905 Y130.217 E61.53477
G1 X119.878 Y130.202 E61.5365
G1 X119.834 Y130.165 E61.53971
G1 X119.797 Y130.122 E61.54288
G1 X119.781 Y130.092 E61.54478
G1 X119.77 Y130.054 E61.54699
G1 X119.764 Y129.999 E61.55008
G1 X119.77 Y129.945 E61.55312
G1 X119.781 Y129.907 E61.55533
G1 X119.797 Y129.877 E61.55723
G1 X119.834 Y129.834 E61.5604
G1 X119.877 Y129.797 E61.56357
G1 X119.907 Y129.781 E61.56547
M204 S3000
G1 F4800 E57.06547
G1 F300 Z1.2
G0 F2700 X111.5 Y111.5 Z1.2
;TIME_ELAPSED:87.707438
;LAYER:1
M140 S60
M106 S1.7
G0 F7200 X111.5 Y111.5 Z1.4
M204 S2250
;TYPE:WALL-INNER
G1 F300 Z0.4
G1 F4800 E61.56547
G1 F1500 X88.5 Y111.5 E62.3687
G1 X88.5 Y88.5 E63.17193
G1 X111.5 Y88.5 E63.97516
G1 X111.5 Y111.5 E64.7784
M204 S3000
G0 F7200 X111.9 Y111.9
M204 S2250
G1 F1500 X88.1 Y111.9 E65.60957
G1 X88.1 Y88.1 E66.44074
G1 X111.9 Y88.1 E67.27191
G1 X111.9 Y111.9 E68.10308
M204 S3000
G0 F7200 X112.3 Y112.3
M204 S2250
;TYPE:WALL-OUTER
G1 F1200 X87.7 Y112.3 E68.96219
G1 X87.7 Y87.7 E69.8213
G1 X112.3 Y87.7 E70.68041
G1 X112.3 Y112.3 E71.53952
M204 S3000
G0 F7200 X112.1 Y112.3
G0 X111.83 Y111.83
G0 X111.11 Y111.11
M204 S2250
;TYPE:SKIN
G1 F1200 X88.89 Y111.11 E72.31551
G1 X88.89 Y88.89 E73.0915
G1 X111.11 Y88.89 E73.86749
G1 X111.11 Y111.11 E74.64348
M204 S3000
G0 F7200 X100.31 Y100.31
M204 S2250
G1 F1200 X99.69 Y100.31 E74.66514
G1 X99.69 Y99.69 E74.68679
G1 X100.31 Y99.69 E74.70844
G1 X100.31 Y100.31 E74.73009
M204 S3000
G0 F7200 X100.71 Y100.71
M204 S2250
G1 F1200 X99.29 Y100.71 E74.77969
G1 X99.29 Y99.29 E74.82928
G1 X100.71 Y99.29 E74.87887
G1 X100.71 Y100.71 E74.92846
M204 S3000
G0 F7200 X101.11 Y101.11
M204 S2250
G1 F1200 X98.89 Y101.11 E75.00599
G1 X98.89 Y98.89 E75.08352
G1 X101.11 Y98.89 E75.16105
G1 X101.11 Y101.11 E75.23858
M204 S3000
G0 F7200 X101.51 Y101.51
M204 S2250
G1 F1200 X98.49 Y101.51 E75.34404
G1 X98.49 Y98.49 E75.44951
G1 X101.51 Y98.49 E75.55498
G1 X101.51 Y101.51 E75.66045
M204 S3000
G0 F7200 X101.91 Y101.91
M204 S2250
G1 F1200 X98.09 Y101.91 E75.79385
G1 X98.09 Y98.09 E75.92726
G1 X101.91 Y98.09 E76.06067
G1 X101.91 Y101.91 E76.19407
M204 S3000
G0 F7200 X102.31 Y102.31
M204 S2250
G1 F1200 X97.69 Y102.31 E76.35542
G1 X97.69 Y97.69 E76.51676
G1 X102.31 Y97.69 E76.67811
G1 X102.31 Y102.31 E76.83945
M204 S3000
G0 F7200 X102.71 Y102.71
M204 S2250
G1 F1200 X97.29 Y102.71 E77.02874
G1 X97.29 Y97.29 E77.21802
G1 X102.71 Y97.29 E77.4073
G1 X102.71 Y102.71 E77.59659
M204 S3000
G0 F7200 X103.11 Y103.11
M204 S2250
G1 F1200 X96.89 Y103.11 E77.81381
G1 X96.89 Y96.89 E78.03103
G1 X103.11 Y96.89 E78.24825
G1 X103.11 Y103.11 E78.46547
M204 S3000
G0 F7200 X103.51 Y103.51
M204 S2250
G1 F1200 X96.49 Y103.51 E78.71063
G1 X96.49 Y96.49 E78.95579
G1 X103.51 Y96.49 E79.20095
G1 X103.51 Y103.51 E79.44612
M204 S3000
G0 F7200 X103.91 Y103.91
M204 S2250
G1 F1200 X96.09 Y103.91 E79.71921
G1 X96.09 Y96.09 E79.99231
G1 X103.91 Y96.09 E80.26541
G1 X103.91 Y103.91 E80.53851
M204 S3000
G0 F7200 X104.31 Y104.31
M204 S2250
G1 F1200 X95.69 Y104.31 E80.83955
G1 X95.69 Y95.69 E81.14059
G1 X104.31 Y95.69 E81.44162
G1 X104.31 Y104.31 E81.74266
M204 S3000
G0 F7200 X104.71 Y104.71
M204 S2250
G1 F1200 X95.29 Y104.71 E82.07164
G1 X95.29 Y95.29 E82.40061
G1 X104.71 Y95.29 E82.72959
G1 X104.71 Y104.71 E83.05857
M204 S3000
G0 F7200 X105.11 Y105.11
M204 S2250
G1 F1200 X94.89 Y105.11 E83.41548
G1 X94.89 Y94.89 E83.77239
G1 X105.11 Y94.89 E84.12931
G1 X105.11 Y105.11 E84.48622
M204 S3000
G0 F7200 X105.51 Y105.51
M204 S2250
G1 F1200 X94.49 Y105.51 E84.87108
G1 X94.49 Y94.49 E85.25593
G1 X105.51 Y94.49 E85.64078
G1 X105.51 Y105.51 E86.02564
M204 S3000
G0 F7200 X105.91 Y105.91
M204 S2250
G1 F1200 X94.09 Y105.91 E86.43843
G1 X94.09 Y94.09 E86.85122
G1 X105.91 Y94.09 E87.26401
G1 X105.91 Y105.91 E87.6768
M204 S3000
G0 F7200 X106.31 Y106.31
M204 S2250
