;FLAVOR:Marlin
;TIME:125
;Filament used: 0.0860296m
;Layer height: 0.2

;Generated with Cura_SteamEngine master

;Kodak Start G-code
G21                             ;Metric units
G90                             ;Absolute coordinates mode
M82                             ;Absolute extrusion mode
M107                            ;Turn off layer fans
M140 S60                        ;Start bed warm up
M104 S215 T1
G28                             ;Home and auto-leveling
T1                              ;Tool change
G1 X0.0 Y0.0 F7200          ;Purge position
M109 S215 T1                    ;Tool warm up
M190 S60                        ;
G92 E0.0                        ;
G1 F200 E15.0                   ;Purge the tool
G1 X150.0 Z0.5 F7200            ; 
G1 X175.0 Z-0.5                 ;
G92 E0.0                        ;
G1 F200 E-4.5                   ;
;Kodak Start G-code

;LAYER_COUNT:2
;LAYER:0
M204 S3000
G0 F2700 X105.979 Y109.113 Z0.2
M204 S2250
;TYPE:WALL-INNER
G1 F4800 E0
G1 F900 X105.651 Y109.321 E0.0217
G1 X105.35 Y109.498 E0.04121
G1 X105.016 Y109.676 E0.06236
G1 X104.675 Y109.847 E0.08368
G1 X104.357 Y109.993 E0.10323
G1 X104.046 Y110.123 E0.12206
G1 X103.706 Y110.251 E0.14236
G1 X103.308 Y110.386 E0.16585
G1 X102.993 Y110.482 E0.18425
G1 X102.656 Y110.571 E0.20372
G1 X102.249 Y110.665 E0.22706
G1 X101.917 Y110.73 E0.24597
G1 X101.542 Y110.79 E0.26719
G1 X101.174 Y110.837 E0.28792
G1 X100.839 Y110.867 E0.30671
G1 X100.467 Y110.889 E0.32753
G1 X100.079 Y110.9 E0.34922
G1 X99.713 Y110.896 E0.36968
G1 X99.369 Y110.882 E0.38891
G1 X98.997 Y110.854 E0.40976
G1 X98.621 Y110.813 E0.43089
G1 X98.287 Y110.764 E0.44976
G1 X97.907 Y110.696 E0.47133
G1 X97.539 Y110.618 E0.49235
G1 X97.181 Y110.53 E0.51295
G1 X96.867 Y110.44 E0.5312
G1 X96.497 Y110.32 E0.55293
G1 X96.137 Y110.192 E0.57428
G1 X95.8 Y110.058 E0.59455
G1 X95.155 Y109.764 E0.63415
G1 X94.826 Y109.592 E0.6549
G1 X94.484 Y109.4 E0.67681
G1 X94.19 Y109.223 E0.69599
G1 X93.872 Y109.013 E0.71728
G1 X93.583 Y108.809 E0.73705
G1 X93.28 Y108.582 E0.7582
G1 X92.992 Y108.348 E0.77894
G1 X92.734 Y108.124 E0.79803
G1 X92.473 Y107.882 E0.81792
G1 X92.202 Y107.615 E0.83918
G1 X91.928 Y107.324 E0.86151
G1 X91.707 Y107.071 E0.88028
G1 X91.454 Y106.764 E0.90251
G1 X91.255 Y106.505 E0.92076
G1 X91.034 Y106.196 E0.94199
G1 X90.826 Y105.886 E0.96285
G1 X90.648 Y105.599 E0.98172
G1 X90.454 Y105.26 E1.00354
G1 X90.273 Y104.917 E1.02521
G1 X90.118 Y104.6 E1.04493
G1 X89.978 Y104.285 E1.06419
G1 X89.837 Y103.935 E1.08528
G1 X89.706 Y103.578 E1.10652
G1 X89.598 Y103.254 E1.12561
G1 X89.491 Y102.89 E1.14681
G1 X89.405 Y102.553 E1.16624
G1 X89.318 Y102.164 E1.18852
G1 X89.258 Y101.839 E1.20698
G1 X89.198 Y101.445 E1.22925
G1 X89.158 Y101.114 E1.24788
G1 X89.124 Y100.706 E1.27076
G1 X89.108 Y100.381 E1.28894
G1 X89.101 Y100.027 E1.30872
G1 X89.108 Y99.618 E1.33158
G1 X89.124 Y99.294 E1.34971
G1 X89.158 Y98.886 E1.37258
G1 X89.198 Y98.555 E1.39121
G1 X89.258 Y98.161 E1.41348
G1 X89.319 Y97.832 E1.43218
G1 X89.395 Y97.485 E1.45203
G1 X89.497 Y97.088 E1.47493
G1 X89.588 Y96.778 E1.49299
G1 X89.705 Y96.422 E1.51393
G1 X89.843 Y96.046 E1.53631
G1 X89.963 Y95.749 E1.5542
G1 X90.114 Y95.412 E1.57484
G1 X90.293 Y95.044 E1.59771
G1 X90.443 Y94.76 E1.61565
G1 X90.652 Y94.396 E1.63911
G1 X90.839 Y94.094 E1.65895
G1 X91.024 Y93.817 E1.67757
G1 X91.257 Y93.492 E1.69991
G1 X91.454 Y93.236 E1.71796
G1 X91.721 Y92.912 E1.74142
G1 X91.958 Y92.642 E1.76149
G1 X92.176 Y92.41 E1.77928
G1 X92.467 Y92.122 E1.80216
G1 X92.721 Y91.888 E1.82146
G1 X92.992 Y91.653 E1.8415
G1 X93.28 Y91.418 E1.86227
G1 X93.583 Y91.191 E1.88343
G1 X93.893 Y90.972 E1.90463
G1 X94.189 Y90.778 E1.92441
G1 X94.484 Y90.599 E1.94369
G1 X94.832 Y90.404 E1.96598
G1 X95.145 Y90.242 E1.98567
G1 X95.457 Y90.093 E2.00499
G1 X95.833 Y89.929 E2.02791
G1 X96.138 Y89.808 E2.04625
G1 X96.497 Y89.68 E2.06755
G1 X96.867 Y89.56 E2.08928
G1 X97.174 Y89.472 E2.10713
G1 X97.547 Y89.38 E2.12859
G1 X97.907 Y89.304 E2.14915
G1 X98.285 Y89.236 E2.17061
G1 X98.616 Y89.188 E2.1893
G1 X98.997 Y89.146 E2.21072
G1 X99.369 Y89.118 E2.23156
G1 X99.713 Y89.104 E2.2508
G1 X100.08 Y89.1 E2.27131
G1 X100.474 Y89.111 E2.29333
G1 X100.84 Y89.132 E2.31382
G1 X101.174 Y89.163 E2.33256
G1 X101.542 Y89.21 E2.35329
G1 X101.916 Y89.27 E2.37446
G1 X102.257 Y89.337 E2.39387
G1 X102.626 Y89.421 E2.41502
G1 X102.983 Y89.516 E2.43566
G1 X103.329 Y89.621 E2.45587
G1 X103.706 Y89.749 E2.47811
G1 X104.046 Y89.877 E2.49841
G1 X104.356 Y90.007 E2.5172
G1 X104.686 Y90.158 E2.53748
G1 X105.034 Y90.332 E2.55922
G1 X105.347 Y90.501 E2.57909
G1 X105.635 Y90.669 E2.59772
G1 X105.99 Y90.894 E2.62121
G1 X106.278 Y91.089 E2.64064
G1 X106.566 Y91.299 E2.66056
G1 X106.837 Y91.51 E2.67975
G1 X107.151 Y91.773 E2.70264
G1 X107.421 Y92.016 E2.72293
G1 X107.672 Y92.257 E2.74238
G1 X107.951 Y92.543 E2.7647
G1 X108.159 Y92.77 E2.78191
G1 X108.424 Y93.082 E2.80478
G1 X108.641 Y93.356 E2.82431
G1 X108.867 Y93.659 E2.84543
G1 X109.056 Y93.931 E2.86394
G1 X109.266 Y94.258 E2.88565
G1 X109.441 Y94.551 E2.90472
G1 X109.63 Y94.894 E2.92661
G1 X109.812 Y95.25 E2.94895
G1 X109.943 Y95.532 E2.96632
G1 X110.087 Y95.869 E2.9868
G1 X110.235 Y96.25 E3.00964
G1 X110.341 Y96.556 E3.02773
G1 X110.467 Y96.957 E3.05122
G1 X110.549 Y97.256 E3.06854
G1 X110.644 Y97.654 E3.09141
G1 X110.718 Y98.014 E3.11194
G1 X110.777 Y98.363 E3.13172
G1 X110.822 Y98.699 E3.15066
G1 X110.862 Y99.081 E3.17213
G1 X110.885 Y99.425 E3.19139
G1 X110.899 Y99.834 E3.21426
G1 X110.899 Y100.157 E3.23231
G1 X110.887 Y100.536 E3.25349
G1 X110.865 Y100.884 E3.27298
G1 X110.823 Y101.292 E3.2959
G1 X110.78 Y101.618 E3.31427
G1 X110.72 Y101.976 E3.33455
G1 X110.644 Y102.347 E3.35571
G1 X110.556 Y102.718 E3.37702
G1 X110.459 Y103.067 E3.39726
G1 X110.353 Y103.408 E3.41721
G1 X110.225 Y103.777 E3.43904
G1 X110.107 Y104.083 E3.45736
G1 X109.954 Y104.442 E3.47917
G1 X109.803 Y104.767 E3.49919
G1 X109.643 Y105.082 E3.51893
G1 X109.452 Y105.43 E3.54112
G1 X109.269 Y105.737 E3.56109
G1 X109.084 Y106.024 E3.58017
G1 X108.852 Y106.36 E3.60298
G1 X108.658 Y106.622 E3.6212
G1 X108.416 Y106.928 E3.643
G1 X108.188 Y107.196 E3.66266
G1 X107.936 Y107.472 E3.68354
G1 X107.693 Y107.722 E3.70302
G1 X107.421 Y107.984 E3.72413
G1 X107.143 Y108.234 E3.74502
G1 X106.855 Y108.475 E3.766
G1 X106.59 Y108.682 E3.78479
G1 X106.261 Y108.922 E3.80754
G1 X105.979 Y109.113 E3.82658
M204 S3000
G0 F2700 X109.081 Y106.959
G0 X109.16 Y107.019
M204 S2250
G1 F900 X108.912 Y107.332 E3.84889
G1 X108.661 Y107.628 E3.87058
G1 X108.409 Y107.904 E3.89146
G1 X108.137 Y108.183 E3.91323
G1 X107.849 Y108.46 E3.93556
G1 X107.554 Y108.725 E3.95772
G1 X107.266 Y108.966 E3.9787
G1 X106.968 Y109.199 E3.99984
G1 X106.637 Y109.441 E4.02275
G1 X106.333 Y109.647 E4.04327
G1 X105.984 Y109.868 E4.06635
G1 X105.66 Y110.058 E4.08734
G1 X105.304 Y110.248 E4.10989
G1 X104.964 Y110.419 E4.13115
G1 X104.622 Y110.575 E4.15216
G1 X104.276 Y110.72 E4.17312
G1 X103.912 Y110.857 E4.19485
G1 X103.514 Y110.992 E4.21833
G1 X103.156 Y111.101 E4.23924
G1 X102.8 Y111.195 E4.25982
G1 X102.392 Y111.289 E4.28321
G1 X102.033 Y111.36 E4.30366
G1 X101.633 Y111.424 E4.3263
G1 X101.254 Y111.472 E4.34764
G1 X100.877 Y111.506 E4.36879
G1 X100.491 Y111.529 E4.3904
G1 X100.09 Y111.54 E4.41282
G1 X99.706 Y111.536 E4.43427
G1 X99.325 Y111.52 E4.45558
G1 X98.937 Y111.491 E4.47732
G1 X98.546 Y111.448 E4.4993
G1 X98.173 Y111.394 E4.52036
G1 X97.787 Y111.325 E4.54227
G1 X97.406 Y111.244 E4.56404
G1 X97.013 Y111.147 E4.58666
G1 X96.67 Y111.049 E4.60659
G1 X96.287 Y110.925 E4.62908
G1 X95.914 Y110.792 E4.65121
G1 X95.556 Y110.65 E4.67273
G1 X95.215 Y110.5 E4.69355
G1 X94.861 Y110.332 E4.71544
G1 X94.515 Y110.152 E4.73724
G1 X94.17 Y109.958 E4.75935
G1 X93.838 Y109.757 E4.78104
G1 X93.52 Y109.548 E4.8023
G1 X93.198 Y109.321 E4.82431
G1 X92.888 Y109.088 E4.84598
G1 X92.588 Y108.844 E4.86759
G1 X92.301 Y108.595 E4.88882
G1 X92.024 Y108.338 E4.90994
G1 X91.739 Y108.057 E4.9323
G1 X91.462 Y107.763 E4.95487
G1 X91.225 Y107.492 E4.97499
G1 X90.96 Y107.171 E4.99825
G1 X90.736 Y106.88 E5.01877
G1 X90.504 Y106.556 E5.04103
G1 X90.294 Y106.242 E5.06214
G1 X90.095 Y105.92 E5.08329
G1 X89.888 Y105.559 E5.10654
G1 X89.707 Y105.216 E5.12821
G1 X89.537 Y104.867 E5.14991
G1 X89.384 Y104.524 E5.17089
G1 X89.243 Y104.174 E5.19198
G1 X89.105 Y103.799 E5.2143
G1 X88.986 Y103.442 E5.23533
G1 X88.876 Y103.067 E5.25717
G1 X88.78 Y102.693 E5.27874
G1 X88.693 Y102.304 E5.30102
G1 X88.625 Y101.935 E5.32198
G1 X88.565 Y101.541 E5.34425
G1 X88.52 Y101.167 E5.3653
G1 X88.486 Y100.759 E5.38818
G1 X88.468 Y100.393 E5.40865
G1 X88.461 Y100.016 E5.42972
G1 X88.468 Y99.607 E5.45258
G1 X88.486 Y99.241 E5.47306
G1 X88.52 Y98.833 E5.49593
G1 X88.565 Y98.459 E5.51698
G1 X88.625 Y98.065 E5.53925
G1 X88.694 Y97.694 E5.56034
G1 X88.775 Y97.326 E5.58139
G1 X88.877 Y96.929 E5.60429
G1 X88.98 Y96.578 E5.62473
G1 X89.104 Y96.201 E5.64691
G1 X89.242 Y95.825 E5.66929
G1 X89.379 Y95.487 E5.68967
G1 X89.538 Y95.132 E5.7114
G1 X89.717 Y94.764 E5.73427
G1 X89.888 Y94.441 E5.75469
G1 X90.097 Y94.077 E5.77815
G1 X90.295 Y93.757 E5.79917
G1 X90.504 Y93.444 E5.8202
G1 X90.737 Y93.119 E5.84255
G1 X90.96 Y92.829 E5.86299
G1 X91.227 Y92.505 E5.88645
G1 X91.477 Y92.22 E5.90763
G1 X91.726 Y91.955 E5.92795
G1 X92.017 Y91.667 E5.95083
G1 X92.302 Y91.404 E5.9725
G1 X92.588 Y91.156 E5.99365
G1 X92.888 Y90.912 E6.01526
G1 X93.198 Y90.679 E6.03693
G1 X93.524 Y90.449 E6.05922
G1 X93.838 Y90.243 E6.0802
G1 X94.17 Y90.042 E6.10189
G1 X94.518 Y89.846 E6.12421
G1 X94.861 Y89.668 E6.1458
G1 X95.201 Y89.506 E6.16684
G1 X95.577 Y89.342 E6.18977
G1 X95.915 Y89.208 E6.21008
G1 X96.287 Y89.075 E6.23216
G1 X96.67 Y88.951 E6.25465
G1 X97.013 Y88.853 E6.27458
G1 X97.409 Y88.755 E6.29738
G1 X97.787 Y88.675 E6.31897
G1 X98.172 Y88.606 E6.34082
G1 X98.546 Y88.552 E6.36194
G1 X98.937 Y88.509 E6.38392
G1 X99.325 Y88.48 E6.40566
G1 X99.706 Y88.464 E6.42697
G1 X100.09 Y88.46 E6.44842
G1 X100.496 Y88.471 E6.47112
G1 X100.878 Y88.493 E6.4925
G1 X101.254 Y88.528 E6.5136
G1 X101.633 Y88.576 E6.53495
G1 X102.032 Y88.64 E6.55753
G1 X102.392 Y88.711 E6.57803
G1 X102.785 Y88.801 E6.60056
G1 X103.165 Y88.902 E6.62253
G1 X103.515 Y89.008 E6.64296
G1 X103.912 Y89.143 E6.66639
G1 X104.276 Y89.28 E6.68813
G1 X104.622 Y89.425 E6.70909
G1 X104.964 Y89.581 E6.73009
G1 X105.321 Y89.76 E6.75241
G1 X105.662 Y89.944 E6.77406
G1 X105.978 Y90.128 E6.79449
G1 X106.333 Y90.353 E6.81798
G1 X106.637 Y90.559 E6.83849
G1 X106.959 Y90.794 E6.86077
G1 X107.248 Y91.019 E6.88123
G1 X107.562 Y91.282 E6.90412
G1 X107.849 Y91.54 E6.92569
G1 X108.13 Y91.81 E6.94746
G1 X108.409 Y92.096 E6.96979
G1 X108.647 Y92.356 E6.98948
G1 X108.912 Y92.668 E7.01235
G1 X109.154 Y92.973 E7.03411
G1 X109.38 Y93.276 E7.05523
G1 X109.594 Y93.585 E7.07623
G1 X109.816 Y93.93 E7.09916
G1 X110.002 Y94.242 E7.11945
G1 X110.191 Y94.585 E7.14134
G1 X110.382 Y94.959 E7.1648
G1 X110.532 Y95.281 E7.18465
G1 X110.684 Y95.637 E7.20628
G1 X110.832 Y96.018 E7.22912
G1 X110.952 Y96.364 E7.24958
G1 X111.078 Y96.765 E7.27307
G1 X111.172 Y97.107 E7.29289
G1 X111.267 Y97.505 E7.31575
G1 X111.345 Y97.885 E7.33743
G1 X111.411 Y98.277 E7.35964
G1 X111.459 Y98.632 E7.37966
G1 X111.499 Y99.014 E7.40112
G1 X111.525 Y99.403 E7.4229
G1 X111.539 Y99.812 E7.44577
G1 X111.539 Y100.178 E7.46622
G1 X111.526 Y100.577 E7.48853
G1 X111.502 Y100.95 E7.50941
G1 X111.46 Y101.358 E7.53233
G1 X111.411 Y101.724 E7.55297
G1 X111.347 Y102.105 E7.57455
G1 X111.267 Y102.495 E7.5968
G1 X111.173 Y102.89 E7.61949
G1 X111.071 Y103.256 E7.64072
G1 X110.958 Y103.618 E7.66191
G1 X110.829 Y103.99 E7.68391
G1 X110.696 Y104.334 E7.70452
G1 X110.535 Y104.711 E7.72742
G1 X110.382 Y105.041 E7.74775
G1 X110.204 Y105.39 E7.76964
G1 X110.002 Y105.758 E7.7931
G1 X109.816 Y106.07 E7.81339
G1 X109.611 Y106.388 E7.83453
G1 X109.379 Y106.724 E7.85735
G1 X109.16 Y107.019 E7.87788
M204 S3000
G0 F2700 X109.081 Y106.959
G0 X106.279 Y109.564
G0 X106.676 Y110.188
M204 S2250
;TYPE:WALL-OUTER
G1 F900 X106.321 Y110.413 E7.90136
G1 X105.977 Y110.614 E7.92362
G1 X105.608 Y110.812 E7.94702
G1 X105.251 Y110.991 E7.96934
G1 X104.869 Y111.165 E7.99279
G1 X104.501 Y111.319 E8.01509
G1 X104.118 Y111.463 E8.03795
G1 X103.72 Y111.598 E8.06143
G1 X103.331 Y111.716 E8.08415
G1 X102.944 Y111.819 E8.10652
G1 X102.536 Y111.913 E8.12992
G1 X102.138 Y111.991 E8.15258
G1 X101.729 Y112.057 E8.17573
G1 X101.334 Y112.107 E8.19798
G1 X100.916 Y112.145 E8.22143
G1 X100.518 Y112.169 E8.24371
G1 X100.101 Y112.18 E8.26702
G1 X99.7 Y112.176 E8.28943
G1 X99.28 Y112.158 E8.31292
G1 X98.877 Y112.128 E8.3355
G1 X98.476 Y112.084 E8.35804
G1 X98.06 Y112.024 E8.38152
G1 X97.661 Y111.953 E8.40417
G1 X97.267 Y111.869 E8.42668
G1 X96.859 Y111.768 E8.45017
G1 X96.473 Y111.658 E8.47259
G1 X96.077 Y111.53 E8.49585
G1 X95.691 Y111.392 E8.51875
G1 X95.32 Y111.245 E8.54105
G1 X94.943 Y111.08 E8.56405
G1 X94.577 Y110.906 E8.58669
G1 X94.204 Y110.712 E8.61018
G1 X93.856 Y110.516 E8.6325
G1 X93.497 Y110.298 E8.65597
G1 X93.155 Y110.074 E8.67881
G1 X92.829 Y109.844 E8.70111
G1 X92.493 Y109.591 E8.72461
G1 X92.185 Y109.341 E8.74677
G1 X91.868 Y109.066 E8.77022
G1 X91.575 Y108.794 E8.79256
G1 X91.276 Y108.499 E8.81603
G1 X90.996 Y108.202 E8.83884
G1 X90.733 Y107.902 E8.86113
G1 X90.466 Y107.578 E8.88459
G1 X90.217 Y107.254 E8.90743
G1 X89.984 Y106.929 E8.92977
G1 X89.751 Y106.58 E8.95322
G1 X89.542 Y106.242 E8.97542
G1 X89.333 Y105.878 E8.99888
G1 X89.141 Y105.515 E9.02182
G1 X88.962 Y105.148 E9.04464
G1 X88.8 Y104.785 E9.06685
G1 X88.642 Y104.395 E9.09036
G1 X88.504 Y104.02 E9.11269
G1 X88.372 Y103.622 E9.13612
G1 X88.257 Y103.23 E9.15895
G1 X88.155 Y102.833 E9.18185
G1 X88.068 Y102.444 E9.20412
G1 X87.992 Y102.031 E9.22759
G1 X87.932 Y101.637 E9.24986
G1 X87.882 Y101.22 E9.27333
G1 X87.848 Y100.812 E9.2962
G1 X87.828 Y100.404 E9.31903
G1 X87.821 Y100.005 E9.34133
G1 X87.828 Y99.596 E9.36418
G1 X87.848 Y99.188 E9.38701
G1 X87.882 Y98.78 E9.40989
G1 X87.932 Y98.363 E9.43335
G1 X87.992 Y97.969 E9.45562
G1 X88.069 Y97.556 E9.4791
G1 X88.155 Y97.167 E9.50136
G1 X88.257 Y96.77 E9.52426
G1 X88.372 Y96.378 E9.54709
G1 X88.503 Y95.98 E9.5705
G1 X88.641 Y95.604 E9.59288
G1 X88.795 Y95.225 E9.61574
G1 X88.962 Y94.852 E9.63858
G1 X89.141 Y94.484 E9.66144
G1 X89.333 Y94.122 E9.68434
G1 X89.542 Y93.758 E9.70779
G1 X89.751 Y93.42 E9.73
G1 X89.984 Y93.071 E9.75345
G1 X90.217 Y92.746 E9.77579
G1 X90.466 Y92.422 E9.79862
G1 X90.733 Y92.098 E9.82208
G1 X90.996 Y91.798 E9.84438
G1 X91.276 Y91.5 E9.86722
G1 X91.567 Y91.212 E9.8901
G1 X91.868 Y90.934 E9.913
G1 X92.185 Y90.659 E9.93645
G1 X92.493 Y90.409 E9.95861
G1 X92.829 Y90.156 E9.98211
G1 X93.155 Y89.926 E10.00441
G1 X93.497 Y89.702 E10.02725
G1 X93.856 Y89.484 E10.05072
G1 X94.204 Y89.288 E10.07304
G1 X94.577 Y89.094 E10.09653
G1 X94.945 Y88.919 E10.1193
G1 X95.321 Y88.755 E10.14222
G1 X95.691 Y88.608 E10.16447
G1 X96.077 Y88.47 E10.18737
G1 X96.473 Y88.342 E10.21063
G1 X96.859 Y88.232 E10.23305
G1 X97.267 Y88.131 E10.25654
G1 X97.661 Y88.047 E10.27905
G1 X98.06 Y87.976 E10.3017
G1 X98.476 Y87.916 E10.32518
G1 X98.877 Y87.872 E10.34772
G1 X99.28 Y87.842 E10.3703
G1 X99.7 Y87.824 E10.39379
G1 X100.101 Y87.82 E10.4162
G1 X100.518 Y87.831 E10.43951
G1 X100.916 Y87.854 E10.46179
G1 X101.334 Y87.893 E10.48524
G1 X101.729 Y87.943 E10.50749
G1 X102.138 Y88.009 E10.53064
G1 X102.535 Y88.087 E10.55325
G1 X102.944 Y88.181 E10.5767
G1 X103.329 Y88.283 E10.59895
G1 X103.721 Y88.402 E10.62184
G1 X104.118 Y88.537 E10.64527
G1 X104.501 Y88.681 E10.66814
G1 X104.869 Y88.835 E10.69043
G1 X105.251 Y89.009 E10.71388
G1 X105.608 Y89.188 E10.7362
G1 X105.977 Y89.387 E10.75962
G1 X106.321 Y89.587 E10.78186
G1 X106.676 Y89.812 E10.80534
G1 X107.005 Y90.036 E10.82758
G1 X107.345 Y90.284 E10.8511
G1 X107.659 Y90.528 E10.87332
G1 X107.973 Y90.791 E10.8962
G1 X108.277 Y91.064 E10.91904
G1 X108.573 Y91.348 E10.94196
G1 X108.867 Y91.649 E10.96547
G1 X109.135 Y91.942 E10.98765
G1 X109.4 Y92.254 E11.01053
G1 X109.655 Y92.575 E11.03344
G1 X109.906 Y92.912 E11.05692
G1 X110.132 Y93.239 E11.07913
G1 X110.354 Y93.584 E11.10205
G1 X110.563 Y93.934 E11.12483
G1 X110.761 Y94.294 E11.14779
