;FLAVOR:Marlin
;TIME:12099
;Filament used: 11.4743m
;Layer height: 0.2

;Generated with Cura_SteamEngine master
T0
M140 S100
M105
M190 S100
M104 S245
M105
M109 S245
M82 ;absolute extrusion mode
G21
G90
G92 E0.0 
G28 ; home all  axes
G1 X190 Y0 ; go to prime pos
G1 Z20 F3000 ; lift Z
G1 E70 F200 ; prime nozzle
G1 X50.0 Z0.5 F7000
G1 X0.0 Z0.0 F3000 
G92 E0 ; reset extruder
G92 E0
G1 F4200 E-5
;LAYER_COUNT:50
;LAYER:-4
M107
M204 S5000
G0 F10800 X34.139 Y66.094 Z0.2
M204 S600
;TYPE:SUPPORT-INTERFACE
G1 F4200 E0.02079
;FLOW_RATE_COMPENSATED_OFFSET = 1.000000
G1 F675 X35.115 Y65.628 E1.09201
G1 X35.281 Y65.556 E1.10393
G1 X36.819 Y64.96 E1.21255
G1 X40.108 Y63.837 E1.44143
G1 X41.153 Y63.516 E1.51342
G1 X41.33 Y63.47 E1.52546
G1 X42.918 Y63.11 E1.63269
G1 X46.345 Y62.481 E1.86215
G1 X47.593 Y62.298 E1.94522
G1 X49.217 Y62.175 E2.05247
G1 X52.684 Y62.055 E2.28093
G1 X53.972 Y62.056 E2.36575
G1 X55.587 Y62.172 E2.47238
G1 X58.98 Y62.555 E2.69724
G1 X60.168 Y62.726 E2.77629
G1 X61.913 Y63.108 E2.89392
G1 X65.142 Y63.966 E3.11395
G1 X66.333 Y64.319 E3.19576
G1 X66.507 Y64.379 E3.20788
G1 X67.505 Y64.762 E3.27827
G1 X68.144 Y64.961 E3.32235
G1 X68.817 Y65.081 E3.36737
G1 X69.498 Y65.116 E3.41227
G1 X70.179 Y65.063 E3.45726
G1 X70.847 Y64.926 E3.50216
G1 X71.495 Y64.704 E3.54727
G1 X72.11 Y64.401 E3.59242
G1 X72.794 Y63.936 E3.64689
G1 X88.883 Y51.021 E5.00557
G1 X89.781 Y50.343 E5.07967
G1 X93.727 Y47.53 E5.39881
G1 X94.664 Y46.904 E5.47302
G1 X95.516 Y46.398 E5.53827
G1 X99.496 Y44.17 E5.83865
G1 X100.573 Y43.609 E5.91862
G1 X100.798 Y43.499 E5.93512
G1 X101.701 Y43.092 E6.00034
G1 X105.966 Y41.297 E6.30508
G1 X107.178 Y40.835 E6.3905
G1 X108.027 Y40.563 E6.44921
G1 X112.675 Y39.184 E6.76849
G1 X113.87 Y38.872 E6.84982
G1 X114.775 Y38.687 E6.91065
G1 X119.242 Y37.884 E7.20954
G1 X120.445 Y37.703 E7.28966
G1 X120.859 Y37.654 E7.31711
G1 X121.919 Y37.555 E7.38722
G1 X126.596 Y37.256 E7.69586
G1 X127.856 Y37.219 E7.77887
G1 X128.721 Y37.239 E7.83585
G1 X133.244 Y37.44 E8.13401
G1 X134.517 Y37.535 E8.21807
G1 X135.696 Y37.685 E8.29634
G1 X140.195 Y38.393 E8.59627
G1 X141.428 Y38.626 E8.67891
G1 X142.377 Y38.858 E8.74324
G1 X146.807 Y40.06 E9.04553
G1 X147.88 Y40.384 E9.11934
G1 X148.28 Y40.518 E9.14712
G1 X149.373 Y40.916 E9.22373
G1 X153.686 Y42.643 E9.52968
G1 X154.857 Y43.159 E9.61396
G1 X155.581 Y43.523 E9.66732
G1 X159.653 Y45.689 E9.97106
G1 X160.751 Y46.317 E10.05436
G1 X161.718 Y46.938 E10.13004
G1 X165.577 Y49.582 E10.43811
G1 X166.583 Y50.323 E10.52039
G1 X167.24 Y50.862 E10.57635
G1 X170.953 Y54.057 E10.89894
G1 X171.751 Y54.788 E10.97021
G1 X172.461 Y55.507 E11.03675
G1 X175.747 Y59.041 E11.35454
G1 X176.656 Y60.09 E11.44595
G1 X177.203 Y60.796 E11.50477
G1 X180.098 Y64.713 E11.82553
G1 X180.79 Y65.719 E11.90594
G1 X181.258 Y66.485 E11.96506
G1 X183.593 Y70.502 E12.27104
G1 X184.192 Y71.618 E12.35445
G1 X184.554 Y72.387 E12.41043
G1 X186.509 Y76.798 E12.72817
G1 X187.008 Y78.039 E12.81625
G1 X187.291 Y78.865 E12.87375
G1 X188.748 Y83.494 E13.19334
G1 X189.093 Y84.741 E13.27855
G1 X189.282 Y85.6 E13.33647
G1 X190.206 Y90.325 E13.65353
G1 X190.4 Y91.512 E13.73274
G1 X190.508 Y92.503 E13.79838
G1 X190.902 Y97.347 E14.11844
G1 X190.962 Y98.608 E14.20158
G1 X190.956 Y99.501 E14.26039
G1 X190.805 Y104.372 E14.58132
G1 X190.736 Y105.492 E14.65522
G1 X190.617 Y106.513 E14.72291
G1 X189.981 Y111.034 E15.02357
G1 X189.772 Y112.249 E15.10476
G1 X189.556 Y113.202 E15.16911
G1 X188.414 Y117.686 E15.47383
G1 X188.044 Y118.972 E15.56196
G1 X187.976 Y119.184 E15.57662
G1 X187.664 Y120.073 E15.63867
G1 X186.022 Y124.41 E15.94407
G1 X185.538 Y125.568 E16.02672
G1 X185.141 Y126.393 E16.08701
G1 X182.987 Y130.623 E16.39962
G1 X182.413 Y131.667 E16.47808
G1 X181.844 Y132.582 E16.54903
G1 X179.195 Y136.585 E16.86515
G1 X178.4 Y137.706 E16.95565
G1 X177.827 Y138.425 E17.0162
G1 X174.814 Y142.036 E17.32591
G1 X173.97 Y142.981 E17.40935
G1 X173.333 Y143.622 E17.46886
G1 X169.932 Y146.886 E17.77929
G1 X169.02 Y147.711 E17.86028
G1 X168.249 Y148.335 E17.9256
G1 X164.47 Y151.23 E18.2391
G1 X163.448 Y151.965 E18.322
G1 X162.616 Y152.498 E18.38707
G1 X158.562 Y154.945 E18.69891
G1 X157.577 Y155.498 E18.77331
G1 X156.606 Y155.979 E18.84467
G1 X152.175 Y158.017 E19.16586
G1 X150.998 Y158.51 E19.24989
G1 X150.189 Y158.8 E19.30649
G1 X145.661 Y160.302 E19.62066
G1 X144.591 Y160.622 E19.69421
G1 X143.588 Y160.865 E19.76217
G1 X138.947 Y161.855 E20.07468
G1 X137.703 Y162.077 E20.1579
G1 X136.824 Y162.185 E20.21622
G1 X131.907 Y162.674 E20.54163
G1 X130.678 Y162.755 E20.62274
G1 X129.782 Y162.766 E20.68175
G1 X125.001 Y162.706 E20.99663
G1 X123.744 Y162.647 E21.0795
G1 X122.855 Y162.558 E21.13833
G1 X118.06 Y161.965 E21.45652
G1 X116.811 Y161.766 E21.53981
G1 X115.751 Y161.53 E21.61132
G1 X114.554 Y161.191 E21.69325
G1 X113.475 Y160.813 E21.76854
G1 X112.365 Y160.386 E21.84686
G1 X111.256 Y159.919 E21.92611
G1 X110.166 Y159.381 E22.00616
G1 X109.087 Y158.76 E22.08814
G1 X108.046 Y158.07 E22.17039
G1 X107.042 Y157.308 E22.2534
G1 X106.077 Y156.475 E22.33735
G1 X105.22 Y155.681 E22.41428
G1 X104.245 Y154.716 E22.50462
G1 X103.524 Y153.907 E22.57599
G1 X102.747 Y152.924 E22.65851
G1 X102.034 Y151.894 E22.741
G1 X101.407 Y150.852 E22.82109
G1 X101.325 Y150.704 E22.83223
G1 X100.786 Y149.655 E22.9099
G1 X100.254 Y148.531 E22.99179
G1 X99.835 Y147.569 E23.06089
G1 X99.528 Y146.972 E23.1051
G1 X99.143 Y146.409 E23.15002
G1 X98.689 Y145.899 E23.19499
G1 X98.174 Y145.45 E23.23998
G1 X97.607 Y145.071 E23.28489
G1 X96.996 Y144.765 E23.3299
G1 X96.352 Y144.539 E23.37484
G1 X95.684 Y144.396 E23.41983
G1 X95.003 Y144.338 E23.46484
G1 X94.321 Y144.367 E23.50979
G1 X93.648 Y144.482 E23.55476
G1 X92.995 Y144.681 E23.59971
G1 X92.372 Y144.96 E23.64467
G1 X91.79 Y145.315 E23.68956
G1 X91.308 Y145.696 E23.73002
G1 X90.992 Y145.972 E23.75765
G1 X89.837 Y146.863 E23.85372
G1 X88.857 Y147.567 E23.93318
G1 X87.791 Y148.279 E24.0176
G1 X86.859 Y148.824 E24.0887
G1 X85.73 Y149.397 E24.17208
G1 X84.605 Y149.88 E24.25271
G1 X84.464 Y149.935 E24.26267
G1 X83.112 Y150.402 E24.35687
G1 X81.955 Y150.757 E24.43657
G1 X80.675 Y151.101 E24.52386
G1 X79.445 Y151.349 E24.60649
G1 X78.382 Y151.497 E24.67717
G1 X78.218 Y151.515 E24.68803
G1 X77.142 Y151.597 E24.7591
G1 X76.975 Y151.604 E24.77011
G1 X75.592 Y151.614 E24.86119
G1 X74.306 Y151.577 E24.94591
G1 X73.22 Y151.514 E25.01755
G1 X71.957 Y151.365 E25.1013
G1 X70.748 Y151.142 E25.18226
G1 X69.393 Y150.797 E25.27435
G1 X68.631 Y150.548 E25.32714
G1 X67.985 Y150.381 E25.37108
G1 X67.446 Y150.305 E25.40693
G1 X48.617 Y148.657 E26.65165
G1 X47.169 Y148.476 E26.74775
G1 X43.715 Y147.913 E26.97822
G1 X42.619 Y147.699 E27.05176
G1 X42.442 Y147.658 E27.06372
G1 X40.883 Y147.231 E27.17017
G1 X37.59 Y146.181 E27.39779
G1 X36.534 Y145.808 E27.47154
G1 X36.345 Y145.734 E27.48491
G1 X34.86 Y145.078 E27.59182
G1 X31.724 Y143.541 E27.82181
G1 X30.765 Y143.032 E27.89331
G1 X29.249 Y142.085 E28.01103
G1 X26.396 Y140.12 E28.23916
G1 X25.495 Y139.457 E28.31283
G1 X25.332 Y139.328 E28.32652
G1 X24.092 Y138.262 E28.43421
G1 X21.548 Y135.889 E28.66332
G1 X20.77 Y135.116 E28.73554
G1 X20.665 Y135.003 E28.7457
G1 X19.595 Y133.768 E28.85331
G1 X17.445 Y131.073 E29.08035
G1 X16.763 Y130.161 E29.15534
G1 X16.668 Y130.024 E29.16632
G1 X15.794 Y128.652 E29.27345
G1 X14.035 Y125.617 E29.50446
G1 X13.45 Y124.52 E29.58634
G1 X12.787 Y123.038 E29.69326
G1 X11.508 Y119.823 E29.92112
G1 X11.118 Y118.746 E29.99655
G1 X11.061 Y118.567 E30.00892
G1 X10.628 Y117.011 E30.11529
G1 X9.83 Y113.621 E30.34464
G1 X9.609 Y112.531 E30.41788
G1 X9.582 Y112.366 E30.42889
G1 X9.375 Y110.701 E30.53938
G1 X9.091 Y107.322 E30.76269
G1 X9.029 Y106.168 E30.8388
G1 X9.06 Y104.465 E30.95097
G1 X9.279 Y100.964 E31.18198
G1 X9.389 Y99.803 E31.25878
G1 X9.412 Y99.629 E31.27034
G1 X9.687 Y98.024 E31.37757
G1 X10.418 Y94.614 E31.60724
G1 X10.68 Y93.552 E31.67928
G1 X10.732 Y93.369 E31.69181
G1 X11.233 Y91.84 E31.79777
G1 X12.439 Y88.615 E32.02451
G1 X12.944 Y87.399 E32.11122
G1 X13.695 Y85.904 E32.2214
G1 X15.356 Y82.901 E32.4474
G1 X16.012 Y81.808 E32.53135
G1 X16.953 Y80.466 E32.63929
G1 X19.067 Y77.701 E32.8685
G1 X19.872 Y76.722 E32.95197
G1 X20.923 Y75.607 E33.05287
G1 X23.42 Y73.179 E33.28224
G1 X24.428 Y72.262 E33.37198
G1 X25.725 Y71.246 E33.48048
G1 X28.492 Y69.253 E33.70505
G1 X29.48 Y68.587 E33.78351
G1 X29.626 Y68.496 E33.79484
G1 X31.037 Y67.694 E33.90173
G1 X34.139 Y66.094 E34.13158
M204 S5000
G0 F10800 X34 Y66.165 E34.13158
M204 S600
G1 F675 X34 Y144.656 E39.30061
M204 S5000
G0 F10800 X35 Y145.139 E39.30061
M204 S600
G1 F675 X35 Y65.682 E44.53326
M204 S5000
G0 F10800 X36 Y65.277 E44.53326
M204 S600
G1 F675 X36 Y145.581 E49.82168
M204 S5000
G0 F10800 X37 Y145.972 E49.82168
M204 S600
G1 F675 X37 Y64.898 E55.16082
M204 S5000
G0 F10800 X38 Y64.556 E55.16082
M204 S600
G1 F675 X38 Y146.311 E60.5448
M204 S5000
G0 F10800 X39 Y146.63 E60.5448
M204 S600
G1 F675 X39 Y64.215 E65.97224
M204 S5000
G0 F10800 X40 Y63.873 E65.97224
M204 S600
G1 F675 X40 Y146.949 E71.44322
M204 S5000
G0 F10800 X41 Y147.263 E71.44322
M204 S600
G1 F675 X41 Y63.562 E76.95535
M204 S5000
G0 F10800 X42 Y63.318 E76.95535
M204 S600
G1 F675 X42 Y147.536 E82.50154
M204 S5000
G0 F10800 X43 Y147.773 E82.50154
M204 S600
G1 F675 X43 Y63.094 E88.07808
M204 S5000
G0 F10800 X44 Y62.911 E88.07808
M204 S600
G1 F675 X44 Y147.959 E93.67892
M204 S5000
G0 F10800 X45 Y148.122 E93.67892
M204 S600
G1 F675 X45 Y62.727 E99.30261
M204 S5000
G0 F10800 X46 Y62.544 E99.30261
M204 S600
G1 F675 X46 Y148.285 E104.94909
M204 S5000
G0 F10800 X47 Y148.448 E104.94909
M204 S600
G1 F675 X47 Y62.384 E110.61684
M204 S5000
G0 F10800 X48 Y62.267 E110.61684
M204 S600
G1 F675 X48 Y148.579 E116.30093
M204 S5000
G0 F10800 X49 Y148.69 E116.30093
M204 S600
G1 F675 X49 Y62.191 E121.99732
M204 S5000
G0 F10800 X50 Y62.147 E121.99732
M204 S600
G1 F675 X50 Y148.778 E127.70241
M204 S5000
G0 F10800 X51 Y148.865 E127.70241
M204 S600
G1 F675 X51 Y62.113 E133.41547
M204 S5000
G0 F10800 X52 Y62.078 E133.41547
M204 S600
G1 F675 X52 Y148.953 E139.13663
M204 S5000
G0 F10800 X53 Y149.04 E139.13663
M204 S600
G1 F675 X53 Y62.056 E144.86497
M204 S5000
G0 F10800 X54 Y62.059 E144.86497
M204 S600
G1 F675 X54 Y149.128 E150.5989
M204 S5000
G0 F10800 X55 Y149.215 E150.5989
M204 S600
G1 F675 X55 Y62.13 E156.33389
M204 S5000
G0 F10800 X56 Y62.219 E156.33389
M204 S600
G1 F675 X56 Y149.303 E162.06881
M204 S5000
G0 F10800 X57 Y149.39 E162.06881
M204 S600
G1 F675 X57 Y62.332 E167.80202
M204 S5000
G0 F10800 X58 Y62.445 E167.80202
M204 S600
G1 F675 X58 Y149.478 E173.53359
M204 S5000
G0 F10800 X59 Y149.565 E173.53359
M204 S600
G1 F675 X59 Y62.558 E179.26344
M204 S5000
G0 F10800 X60 Y62.702 E179.26344
M204 S600
G1 F675 X60 Y149.653 E184.9896
M204 S5000
G0 F10800 X61 Y149.74 E184.9896
M204 S600
G1 F675 X61 Y62.909 E190.70787
M204 S5000
G0 F10800 X62 Y63.132 E190.70787
M204 S600
G1 F675 X62 Y149.828 E196.41724
M204 S5000
G0 F10800 X63 Y149.915 E196.41724
M204 S600
G1 F675 X63 Y63.397 E202.11489
M204 S5000
G0 F10800 X64 Y63.663 E202.11489
M204 S600
G1 F675 X64 Y150.003 E207.80081
M204 S5000
G0 F10800 X65 Y150.09 E207.80081
M204 S600
G1 F675 X65 Y63.929 E213.47495
M204 S5000
G0 F10800 X66 Y64.221 E213.47495
M204 S600
G1 F675 X66 Y150.178 E219.13565
M204 S5000
G0 F10800 X67 Y150.265 E219.13565
M204 S600
G1 F675 X67 Y64.569 E224.77917
M204 S5000
G0 F10800 X68 Y64.917 E224.77917
M204 S600
G1 F675 X68 Y150.384 E230.40761
M204 S5000
G0 F10800 X69 Y150.668 E230.40761
M204 S600
G1 F675 X69 Y65.091 E236.04328
M204 S5000
G0 F10800 X70 Y65.076 E236.04328
M204 S600
G1 F675 X70 Y150.951 E241.69859
M204 S5000
G0 F10800 X71 Y151.188 E241.69859
M204 S600
G1 F675 X71 Y64.873 E247.38287
M204 S5000
G0 F10800 X72 Y64.455 E247.38287
M204 S600
G1 F675 X72 Y151.37 E253.10666
M204 S5000
G0 F10800 X73 Y151.488 E253.10666
M204 S600
G1 F675 X73 Y63.77 E258.88334
M204 S5000
G0 F10800 X74 Y62.967 E258.88334
M204 S600
G1 F675 X74 Y151.559 E264.71757
M204 S5000
G0 F10800 X75 Y151.596 E264.71757
M204 S600
G1 F675 X75 Y62.165 E270.60705
M204 S5000
G0 F10800 X76 Y61.362 E270.60705
M204 S600
G1 F675 X76 Y151.612 E276.55047
M204 S5000
G0 F10800 X77 Y151.603 E276.55047
M204 S600
G1 F675 X77 Y60.559 E282.54618
M204 S5000
G0 F10800 X78 Y59.757 E282.54618
M204 S600
G1 F675 X78 Y151.532 E288.59003
M204 S5000
G0 F10800 X79 Y151.411 E288.59003
M204 S600
G1 F675 X79 Y58.954 E294.67879
M204 S5000
G0 F10800 X80 Y58.151 E294.67879
M204 S600
G1 F675 X80 Y151.238 E300.80904
M204 S5000
G0 F10800 X81 Y151.014 E300.80904
M204 S600
G1 F675 X81 Y57.348 E306.97742
M204 S5000
G0 F10800 X82 Y56.546 E306.97742
M204 S600
G1 F675 X82 Y150.744 E313.18084
M204 S5000
G0 F10800 X83 Y150.437 E313.18084
M204 S600
G1 F675 X83 Y55.743 E319.41692
M204 S5000
G0 F10800 X84 Y54.94 E319.41692
M204 S600
G1 F675 X84 Y150.096 E325.68342
M204 S5000
G0 F10800 X85 Y149.711 E325.68342
M204 S600
G1 F675 X85 Y54.137 E331.97746
M204 S5000
G0 F10800 X86 Y53.335 E331.97746
M204 S600
G1 F675 X86 Y149.26 E338.2946
M204 S5000
G0 F10800 X87 Y148.742 E338.2946
M204 S600
G1 F675 X87 Y52.532 E344.63052
M204 S5000
G0 F10800 X88 Y51.729 E344.63052
M204 S600
G1 F675 X88 Y148.14 E350.97967
M204 S5000
G0 F10800 X89 Y147.465 E350.97967
M204 S600
G1 F675 X89 Y50.932 E357.33686
M204 S5000
G0 F10800 X90 Y50.186 E357.33686
M204 S600
G1 F675 X90 Y146.738 E363.6953
M204 S5000
G0 F10800 X91 Y145.966 E363.6953
M204 S600
G1 F675 X91 Y49.474 E370.04979
M204 S5000
G0 F10800 X92 Y48.761 E370.04979
M204 S600
G1 F675 X92 Y145.187 E376.39993
M204 S5000
G0 F10800 X93 Y144.68 E376.39993
M204 S600
G1 F675 X93 Y48.048 E382.76363
M204 S5000
G0 F10800 X94 Y47.347 E382.76363
M204 S600
G1 F675 X94 Y144.422 E389.15651
M204 S5000
G0 F10800 X95 Y144.339 E389.15651
M204 S600
G1 F675 X95 Y46.704 E395.58627
M204 S5000
G0 F10800 X96 Y46.127 E395.58627
M204 S600
G1 F675 X96 Y144.463 E402.0622
M204 S5000
G0 F10800 X97 Y144.767 E402.0622
M204 S600
G1 F675 X97 Y45.567 E408.59502
M204 S5000
G0 F10800 X98 Y45.007 E408.59502
M204 S600
G1 F675 X98 Y145.333 E415.202
M204 S5000
G0 F10800 X99 Y146.248 E415.202
M204 S600
G1 F675 X99 Y44.447 E421.90611
M204 S5000
G0 F10800 X100 Y43.907 E421.90611
M204 S600
G1 F675 X100 Y147.947 E428.75767
M204 S5000
G0 F10800 X101 Y150.071 E428.75767
M204 S600
G1 F675 X101 Y43.407 E435.78203
M204 S5000
G0 F10800 X102 Y42.966 E435.78203
M204 S600
G1 F675 X102 Y151.837 E442.95174
M204 S5000
G0 F10800 X103 Y153.244 E442.95174
M204 S600
G1 F675 X103 Y42.545 E450.24183
M204 S5000
G0 F10800 X104 Y42.124 E450.24183
M204 S600
G1 F675 X104 Y154.441 E457.63847
M204 S5000
G0 F10800 X105 Y155.463 E457.63847
M204 S600
G1 F675 X105 Y41.703 E465.13015
M204 S5000
G0 F10800 X106 Y41.284 E465.13015
M204 S600
G1 F675 X106 Y156.403 E472.71132
M204 S5000
G0 F10800 X107 Y157.271 E472.71132
M204 S600
G1 F675 X107 Y40.902 E480.3748
M204 S5000
G0 F10800 X108 Y40.571 E480.3748
M204 S600
G1 F675 X108 Y158.035 E488.1104
M204 S5000
G0 F10800 X109 Y158.702 E488.1104
M204 S600
G1 F675 X109 Y40.274 E495.90949
M204 S5000
G0 F10800 X110 Y39.977 E495.90949
M204 S600
G1 F675 X110 Y159.285 E503.76652
M204 S5000
G0 F10800 X111 Y159.792 E503.76652
M204 S600
G1 F675 X111 Y39.68 E511.67651
M204 S5000
G0 F10800 X112 Y39.384 E511.67651
M204 S600
G1 F675 X112 Y160.232 E519.63496
M204 S5000
G0 F10800 X113 Y160.63 E519.63496
M204 S600
G1 F675 X113 Y39.099 E527.63839
M204 S5000
G0 F10800 X114 Y38.845 E527.63839
M204 S600
G1 F675 X114 Y160.996 E535.68266
M204 S5000
G0 F10800 X115 Y161.317 E535.68266
M204 S600
G1 F675 X115 Y38.646 E543.76116
M204 S5000
G0 F10800 X116 Y38.466 E543.76116
M204 S600
G1 F675 X116 Y161.585 E551.86917
M204 S5000
G0 F10800 X117 Y161.796 E551.86917
M204 S600
G1 F675 X117 Y38.287 E560.00287
M204 S5000
G0 F10800 X118 Y38.107 E560.00287
M204 S600
G1 F675 X118 Y161.955 E568.15888
M204 S5000
G0 F10800 X119 Y162.081 E568.15888
M204 S600
G1 F675 X119 Y37.927 E576.33505
M204 S5000
G0 F10800 X120 Y37.769 E576.33505
M204 S600
G1 F675 X120 Y162.204 E584.52973
M204 S5000
G0 F10800 X121 Y162.328 E584.52973
M204 S600
G1 F675 X121 Y37.64 E592.74107
M204 S5000
G0 F10800 X122 Y37.549 E592.74107
M204 S600
