;FLAVOR:Marlin
;TIME:1087
;Filament used: 0.682672m
;Layer height: 0.2

;Generated with Cura_SteamEngine master
T0
M190 S70
M104 S215
M109 S215
M82 ;absolute extrusion mode
G21
G90
G28
G92 E0.0
G0 X195.0 Y0.0 F9000
G1 Z35.0 F9000
G1 X50.0 Z0.5 F9000
G1 X0.0 Z0.0 F9000
G1 F9000

G92 E0
G1 F2700 E-4
;LAYER_COUNT:36
;LAYER:0
M107
M204 S3000
G0 F4200 X76.08 Y92.686 Z0.2
M204 S1500
;TYPE:SKIRT
G1 F2400 E0.04158
G1 F600 X76.526 Y92.364 E0.0725
G1 X77.013 Y92.111 E0.10334
G1 X77.532 Y91.93 E0.13424
G1 X78.072 Y91.827 E0.16514
G1 X78.504 Y91.802 E0.18946
G1 X86.144 Y91.792 E0.6189
G1 X91.621 Y91.636 E0.92689
G1 X97.051 Y91.174 E1.23321
G1 X101.543 Y90.567 E1.488
G1 X102.045 Y90.533 E1.51628
G1 X112.798 Y90.521 E2.1207
G1 X113.371 Y90.564 E2.153
G1 X119.151 Y91.444 E2.48164
G1 X121.914 Y91.755 E2.63793
G1 X122.454 Y91.856 E2.66881
G1 X122.974 Y92.034 E2.6997
G1 X123.462 Y92.286 E2.73057
G1 X123.909 Y92.606 E2.76147
G1 X124.305 Y92.987 E2.79236
G1 X124.641 Y93.422 E2.82326
G1 X124.911 Y93.9 E2.85411
G1 X125.108 Y94.413 E2.885
G1 X125.229 Y94.949 E2.91589
G1 X125.271 Y95.516 E2.94785
G1 X125.259 Y104.498 E3.45272
G1 X125.218 Y105.046 E3.48361
G1 X125.099 Y105.582 E3.51447
G1 X124.902 Y106.096 E3.54541
G1 X124.634 Y106.575 E3.57627
G1 X124.299 Y107.011 E3.60717
G1 X123.904 Y107.393 E3.63806
G1 X123.458 Y107.714 E3.66895
G1 X122.97 Y107.967 E3.69985
G1 X122.227 Y108.198 E3.74358
G1 X116.362 Y109.382 E4.0799
G1 X115.62 Y109.457 E4.12182
G1 X99.655 Y109.481 E5.01921
G1 X99.132 Y109.446 E5.04867
G1 X95.638 Y108.964 E5.24693
G1 X90.179 Y108.432 E5.55523
G1 X87.535 Y108.288 E5.70407
G1 X78.472 Y108.198 E6.21352
G1 X77.925 Y108.152 E6.24438
G1 X77.389 Y108.028 E6.2753
G1 X76.878 Y107.827 E6.30617
G1 X76.401 Y107.555 E6.33703
G1 X75.968 Y107.216 E6.36794
G1 X75.589 Y106.818 E6.39883
G1 X75.272 Y106.369 E6.42973
G1 X75.024 Y105.879 E6.4606
G1 X74.849 Y105.358 E6.49149
G1 X74.751 Y104.817 E6.5224
G1 X74.73 Y104.418 E6.54485
G1 X74.729 Y95.582 E7.04152
G1 X74.769 Y95.034 E7.07241
G1 X74.888 Y94.498 E7.10327
G1 X75.083 Y93.984 E7.13417
G1 X75.351 Y93.504 E7.16507
G1 X75.686 Y93.068 E7.19598
G1 X76.08 Y92.686 E7.22682
M204 S3000
G0 F4200 X76.586 Y92.949
M204 S1500
G1 F600 X77.021 Y92.682 E7.25551
G1 X77.492 Y92.485 E7.28421
G1 X77.987 Y92.364 E7.31285
G1 X78.505 Y92.322 E7.34207
G1 X86.123 Y92.312 E7.77027
G1 X91.662 Y92.154 E8.08174
G1 X97.105 Y91.691 E8.3888
G1 X101.613 Y91.082 E8.64449
G1 X102.045 Y91.053 E8.66883
G1 X112.798 Y91.041 E9.27325
G1 X113.293 Y91.078 E9.30115
G1 X119.067 Y91.957 E9.62945
G1 X121.856 Y92.271 E9.78721
G1 X122.357 Y92.368 E9.81589
G1 X122.836 Y92.542 E9.84454
G1 X123.283 Y92.788 E9.87322
G1 X123.686 Y93.101 E9.9019
G1 X124.036 Y93.473 E9.93061
G1 X124.322 Y93.895 E9.95926
G1 X124.54 Y94.357 E9.98798
G1 X124.683 Y94.847 E10.01667
G1 X124.751 Y95.515 E10.05441
G1 X124.739 Y104.497 E10.55929
G1 X124.698 Y105.006 E10.58799
G1 X124.579 Y105.502 E10.61666
G1 X124.383 Y105.974 E10.64539
G1 X124.117 Y106.409 E10.67405
G1 X123.786 Y106.797 E10.70272
G1 X123.398 Y107.128 E10.73138
G1 X122.963 Y107.396 E10.7601
G1 X122.492 Y107.592 E10.78878
G1 X122.124 Y107.689 E10.81017
G1 X116.259 Y108.873 E11.14649
G1 X115.619 Y108.937 E11.18264
G1 X99.654 Y108.961 E12.08003
G1 X99.203 Y108.93 E12.10544
G1 X95.734 Y108.451 E12.30228
G1 X90.21 Y107.914 E12.61425
G1 X87.546 Y107.768 E12.76421
G1 X78.478 Y107.678 E13.27395
G1 X77.969 Y107.633 E13.30267
G1 X77.474 Y107.509 E13.33135
G1 X77.004 Y107.31 E13.36004
G1 X76.572 Y107.039 E13.38871
G1 X76.186 Y106.705 E13.4174
G1 X75.858 Y106.314 E13.44609
G1 X75.595 Y105.877 E13.47476
G1 X75.403 Y105.404 E13.50345
G1 X75.287 Y104.907 E13.53214
G1 X75.25 Y104.418 E13.5597
G1 X75.249 Y95.582 E14.05637
G1 X75.289 Y95.074 E14.08501
G1 X75.408 Y94.577 E14.11374
G1 X75.602 Y94.106 E14.14237
G1 X75.868 Y93.67 E14.17108
G1 X76.199 Y93.282 E14.19975
G1 X76.586 Y92.949 E14.22845
M204 S3000
G1 F2700 E10.22845
G0 F4200 X79.293 Y94.908
G0 X79.294 Y96.367
G0 X79.35 Y96.423
G0 X79.28 Y96.353
M204 S1500
;TYPE:WALL-INNER
G1 F2400 E14.27002
G1 F600 X89.961 Y96.352 E14.8704
G1 X90.22 Y96.352 E14.88495
G1 X90.22 Y96.611 E14.89437
G1 X90.22 Y97.089 E14.92124
G1 X90.276 Y97.909 E14.96744
G1 X90.356 Y98.639 E15.00872
G1 X90.421 Y98.988 E15.02867
G1 X90.499 Y99.229 E15.04291
G1 X90.593 Y99.427 E15.05523
G1 X90.728 Y99.625 E15.0687
G1 X90.942 Y99.812 E15.08467
G1 X91.093 Y99.878 E15.09394
G1 X91.228 Y99.938 E15.10224
G1 X91.287 Y99.942 E15.10556
G1 X91.456 Y99.955 E15.11509
G1 X92.879 Y99.959 E15.19508
G1 X93.154 Y99.96 E15.21054
G1 X93.257 Y99.961 E15.21633
G1 X95.493 Y99.996 E15.34203
G1 X95.595 Y99.998 E15.34776
G1 X95.873 Y99.979 E15.36342
G1 X97.298 Y99.956 E15.44353
G1 X97.471 Y99.953 E15.45326
G1 X97.666 Y99.87 E15.46517
G1 X97.791 Y99.816 E15.47282
G1 X98.002 Y99.649 E15.48795
G1 X98.143 Y99.452 E15.50157
G1 X98.262 Y99.205 E15.51698
G1 X98.324 Y99.016 E15.52816
G1 X98.394 Y98.658 E15.54866
G1 X98.447 Y98.235 E15.57263
G1 X98.47 Y97.913 E15.59077
G1 X98.47 Y98.235 E15.59117
G1 X98.47 Y98.658 E15.59341
G1 X98.47 Y99.016 E15.59765
G1 X98.47 Y99.205 E15.60118
G1 X98.47 Y99.452 E15.60815
G1 X98.47 Y99.648 E15.61642
G1 X98.47 Y100.376 E15.65734
G1 X98.47 Y100.575 E15.66853
G1 X98.47 Y100.766 E15.67926
G1 X98.47 Y101.015 E15.69326
G1 X98.47 Y101.36 E15.71265
G1 X98.471 Y102.067 E15.75239
G1 X98.393 Y101.361 E15.75548
G1 X98.33 Y101.015 E15.75982
G1 X98.251 Y100.766 E15.76523
G1 X98.156 Y100.575 E15.77184
G1 X98.025 Y100.376 E15.78206
G1 X97.803 Y100.185 E15.79732
G1 X97.659 Y100.123 E15.80205
G1 X97.524 Y100.065 E15.80436
G1 X97.461 Y100.06 E15.80444
G1 X97.3 Y100.044 E15.80588
G1 X95.873 Y100.04 E15.81744
G1 X95.595 Y100.039 E15.81897
G1 X95.492 Y100.038
G1 X93.256 Y100.004 E15.82927
G1 X93.154 Y100.002 E15.82971
G1 X92.879 Y100.02 E15.83125
G1 X91.458 Y100.043 E15.84267
G1 X91.279 Y100.047 E15.84477
G1 X91.08 Y100.132 E15.85091
G1 X90.959 Y100.184 E15.85511
G1 X90.751 Y100.347 E15.86997
G1 X90.607 Y100.545 E15.88373
G1 X90.487 Y100.797 E15.89942
G1 X90.426 Y100.983 E15.91042
G1 X90.356 Y101.341 E15.93092
G1 X90.303 Y101.765 E15.95494
G1 X90.22 Y102.908 E16.01936
G1 X90.22 Y103.647 E16.0609
G1 X79.539 Y103.648 E16.66127
G1 X79.28 Y103.648 E16.67583
G1 X79.28 Y103.389 E16.68525
G1 X79.28 Y96.353 E17.08074
M204 S3000
G0 F4200 X79.8 Y96.873
M204 S1500
G1 F600 X89.7 Y96.872 E17.63721
G1 X89.7 Y97.107 E17.65042
G1 X89.758 Y97.955 E17.6982
G1 X89.841 Y98.715 E17.74117
G1 X89.916 Y99.116 E17.7641
G1 X90.015 Y99.421 E17.78213
G1 X90.141 Y99.687 E17.79867
G1 X90.336 Y99.973 E17.81813
G1 X90.363 Y99.996 E17.82012
G1 X90.158 Y100.278 E17.83972
G1 X90.003 Y100.603 E17.85996
G1 X89.922 Y100.852 E17.87468
G1 X89.917 Y100.882 E17.87639
G1 X89.842 Y101.259 E17.89799
G1 X89.785 Y101.714 E17.92377
G1 X89.7 Y102.889 E17.98999
G1 X89.7 Y103.127 E18.00336
G1 X80.059 Y103.128 E18.54528
G1 X79.8 Y103.128 E18.55984
G1 X79.8 Y102.869 E18.56925
G1 X79.8 Y96.873 E18.90629
M204 S3000
G1 F2700 E14.90629
G0 F4200 X91.475 Y99.474
G0 X95.847 Y99.498
G0 X97.368 Y99.474
G0 X98.959 Y104.298
G0 X99.562 Y104.501
G0 X100.238 Y104.45
G0 X100.613 Y104.297
G0 X101.556 Y94.716
G0 X104.097 Y95.311
G0 X104.101 Y104.297
G0 X104.702 Y104.501
G0 X105.379 Y104.451
G0 X105.756 Y104.297
G0 X106.699 Y94.716
G0 X109.24 Y95.311
G0 X109.244 Y104.297
G0 X109.844 Y104.501
G0 X110.522 Y104.451
G0 X110.899 Y104.297
G0 X111.842 Y94.716
G0 X114.382 Y95.311
G0 X114.386 Y104.297
G0 X114.987 Y104.501
G0 X115.665 Y104.451
G0 X116.042 Y104.297
G0 X116.6 Y96.35
G0 X116.53 Y96.28
M204 S1500
G1 F2400 E18.94786
G1 F600 X120.72 Y96.28 E19.18338
G1 X120.72 Y103.72 E19.60158
G1 X116.53 Y103.72 E19.8371
G1 X116.53 Y96.28 E20.2553
M204 S3000
G0 F4200 X117.05 Y96.8
M204 S1500
G1 F600 X120.2 Y96.8 E20.43236
G1 X120.2 Y103.2 E20.7921
G1 X117.05 Y103.2 E20.96916
G1 X117.05 Y96.8 E21.3289
M204 S3000
G0 F4200 X116.99 Y103.62
G0 X116.99 Y104.24
M204 S1500
;TYPE:WALL-OUTER
G1 F600 X116.99 Y104.704 E21.35498
G1 X116.755 Y104.923 E21.37304
G1 X116.409 Y105.151 E21.39633
G1 X116.029 Y105.319 E21.41969
G1 X115.625 Y105.423 E21.44313
G1 X115.214 Y105.457 E21.46632
G1 X114.803 Y105.423 E21.4895
G1 X114.399 Y105.319 E21.51295
G1 X114.02 Y105.151 E21.53625
G1 X113.673 Y104.923 E21.55959
G1 X113.438 Y104.704 E21.57764
G1 X113.438 Y95.724 E22.08241
G1 X113.083 Y95.587 E22.10379
G1 X112.865 Y95.537 E22.11637
G1 X112.643 Y95.521 E22.12888
G1 X112.421 Y95.537 E22.14139
G1 X112.203 Y95.587 E22.15396
G1 X111.847 Y95.723 E22.17538
G1 X111.847 Y104.704 E22.6802
G1 X111.612 Y104.923 E22.69826
G1 X111.266 Y105.151 E22.72155
G1 X110.886 Y105.319 E22.7449
G1 X110.483 Y105.423 E22.7683
G1 X110.071 Y105.457 E22.79153
G1 X109.66 Y105.423 E22.81471
G1 X109.256 Y105.319 E22.83816
G1 X108.877 Y105.151 E22.86147
G1 X108.531 Y104.923 E22.88476
G1 X108.296 Y104.704 E22.90281
G1 X108.296 Y95.723 E23.40763
G1 X107.94 Y95.587 E23.42905
G1 X107.722 Y95.537 E23.44162
G1 X107.5 Y95.521 E23.45414
G1 X107.278 Y95.537 E23.46665
G1 X107.06 Y95.587 E23.47922
G1 X106.704 Y95.723 E23.50064
G1 X106.704 Y104.704 E24.00546
G1 X106.469 Y104.923 E24.02351
G1 X106.123 Y105.151 E24.0468
G1 X105.743 Y105.319 E24.07016
G1 X105.34 Y105.423 E24.09355
G1 X104.928 Y105.457 E24.11679
G1 X104.517 Y105.423 E24.13997
G1 X104.114 Y105.319 E24.16337
G1 X103.734 Y105.151 E24.18672
G1 X103.388 Y104.923 E24.21001
G1 X103.153 Y104.704 E24.22807
G1 X103.153 Y95.723 E24.73289
G1 X102.797 Y95.587 E24.75431
G1 X102.579 Y95.537 E24.76688
G1 X102.357 Y95.521 E24.77939
G1 X102.135 Y95.537 E24.7919
G1 X101.917 Y95.587 E24.80447
G1 X101.561 Y95.723 E24.82589
G1 X101.561 Y104.704 E25.33071
G1 X101.326 Y104.923 E25.34877
G1 X100.98 Y105.151 E25.37206
G1 X100.6 Y105.319 E25.39541
G1 X100.197 Y105.423 E25.41881
G1 X99.786 Y105.457 E25.44199
G1 X99.374 Y105.423 E25.46523
G1 X98.971 Y105.319 E25.48862
G1 X98.591 Y105.151 E25.51198
G1 X98.245 Y104.923 E25.53527
G1 X98.01 Y104.704 E25.55332
G1 X98.01 Y102.928 E25.65315
G1 X97.956 Y102.137 E25.69772
G1 X97.878 Y101.437 E25.73731
G1 X97.824 Y101.141 E25.75422
G1 X97.767 Y100.961 E25.76483
G1 X97.704 Y100.834 E25.7728
G1 X97.631 Y100.723 E25.78027
G1 X97.524 Y100.631 E25.7882
G1 X97.394 Y100.575 E25.79616
G1 X97.275 Y100.564 E25.80287
G1 X95.484 Y100.558 E25.90355
G1 X93.168 Y100.522 E26.03374
G1 X92.903 Y100.54 E26.04867
G1 X91.39 Y100.565 E26.13373
G1 X91.227 Y100.635 E26.1437
G1 X91.129 Y100.712 E26.15071
G1 X91.056 Y100.812 E26.15767
G1 X90.971 Y100.991 E26.1688
G1 X90.93 Y101.115 E26.17615
G1 X90.87 Y101.423 E26.19378
G1 X90.821 Y101.816 E26.21605
G1 X90.74 Y102.927 E26.27866
G1 X90.74 Y104.167 E26.34836
G1 X79.02 Y104.168 E27.00714
G1 X78.76 Y104.168 E27.02175
G1 X78.76 Y103.908 E27.03121
G1 X78.76 Y95.833 E27.4851
G1 X90.48 Y95.832 E28.14388
G1 X90.74 Y95.832 E28.15849
G1 X90.74 Y96.092 E28.16795
G1 X90.74 Y97.071 E28.22298
G1 X90.794 Y97.863 E28.2676
G1 X90.871 Y98.563 E28.30718
G1 X90.926 Y98.86 E28.32416
G1 X90.983 Y99.037 E28.33462
G1 X91.045 Y99.167 E28.34271
G1 X91.12 Y99.277 E28.35019
G1 X91.224 Y99.368 E28.35796
G1 X91.356 Y99.426 E28.36607
G1 X91.476 Y99.435 E28.37283
G1 X93.265 Y99.441 E28.47339
G1 X95.581 Y99.478 E28.60359
G1 X95.846 Y99.459 E28.61852
G1 X97.36 Y99.435 E28.70363
G1 X97.523 Y99.365 E28.71361
G1 X97.622 Y99.287 E28.72069
G1 X97.694 Y99.186 E28.72766
G1 X97.779 Y99.01 E28.73865
G1 X97.82 Y98.885 E28.74604
G1 X97.88 Y98.576 E28.76374
G1 X97.929 Y98.184 E28.78594
G1 X98.006 Y97.125 E28.84562
G1 X98.081 Y96.873 E28.8604
G1 X98.186 Y96.651 E28.87421
G1 X98.295 Y96.491 E28.88509
G1 X98.473 Y96.283 E28.90048
G1 X98.484 Y96.27 E28.90143
G1 X98.685 Y96.1 E28.91623
G1 X98.909 Y95.961 E28.93105
G1 X98.99 Y95.926 E28.93601
G1 X98.99 Y95.961
G1 X98.99 Y96.1 E28.93751
G1 X98.99 Y96.269 E28.94155
G1 X98.99 Y96.287 E28.94255
G1 X98.992 Y104.276 E29.39161
G1 X99.35 Y104.415 E29.4132
G1 X99.567 Y104.462 E29.42568
G1 X99.79 Y104.479 E29.43825
G1 X100.011 Y104.461 E29.45071
G1 X100.227 Y104.412 E29.46316
G1 X100.581 Y104.275 E29.4845
G1 X100.581 Y95.296 E29.9892
G1 X100.816 Y95.077 E30.00726
G1 X101.162 Y94.849 E30.03055
G1 X101.543 Y94.679 E30.054
G1 X101.945 Y94.577 E30.07731
G1 X102.357 Y94.543 E30.10055
G1 X102.769 Y94.577 E30.12379
G1 X103.171 Y94.679 E30.1471
G1 X103.552 Y94.849 E30.17055
G1 X103.898 Y95.077 E30.19384
G1 X104.133 Y95.296 E30.2119
G1 X104.133 Y104.275 E30.7166
G1 X104.489 Y104.413 E30.73807
G1 X104.707 Y104.462 E30.75063
G1 X104.928 Y104.479 E30.76308
G1 X105.15 Y104.462 E30.7756
G1 X105.368 Y104.413 E30.78816
G1 X105.724 Y104.275 E30.80962
G1 X105.724 Y95.296 E31.31433
G1 X105.959 Y95.077 E31.33238
G1 X106.305 Y94.849 E31.35567
G1 X106.686 Y94.679 E31.37912
G1 X107.088 Y94.577 E31.40244
G1 X107.5 Y94.543 E31.42567
G1 X107.912 Y94.577 E31.44891
G1 X108.311 Y94.679 E31.47206
G1 X108.696 Y94.85 E31.49574
G1 X109.041 Y95.077 E31.51895
G1 X109.276 Y95.296 E31.53701
G1 X109.276 Y104.275 E32.04172
G1 X109.632 Y104.413 E32.06318
G1 X109.849 Y104.462 E32.07568
G1 X110.071 Y104.479 E32.0882
G1 X110.293 Y104.462 E32.10071
G1 X110.511 Y104.413 E32.11327
G1 X110.867 Y104.275 E32.13473
G1 X110.867 Y95.296 E32.63944
G1 X111.102 Y95.077 E32.65749
G1 X111.448 Y94.849 E32.68079
G1 X111.829 Y94.679 E32.70424
G1 X112.23 Y94.577 E32.72749
G1 X112.643 Y94.543 E32.75079
G1 X113.055 Y94.577 E32.77403
G1 X113.454 Y94.679 E32.79717
G1 X113.839 Y94.85 E32.82085
G1 X114.183 Y95.077 E32.84402
G1 X114.418 Y95.296 E32.86208
G1 X114.418 Y104.275 E33.36678
G1 X114.774 Y104.413 E33.38824
G1 X114.992 Y104.462 E33.4008
G1 X115.214 Y104.479 E33.41332
G1 X115.436 Y104.462 E33.42583
G1 X115.654 Y104.413 E33.43839
G1 X116.01 Y104.275 E33.45985
G1 X116.01 Y95.76 E33.93848
G1 X121.24 Y95.76 E34.23246
G1 X121.24 Y104.24 E34.70911
G1 X116.99 Y104.24 E34.948
M204 S3000
G0 F4200 X116.99 Y104.704
G0 X116.964 Y104.728
G0 X116.964 Y103.62
G0 X117.56 Y102.69
M204 S1500
;TYPE:SKIN
G1 F600 X117.56 Y97.31 E35.25041
G1 X119.69 Y97.31 E35.37014
G1 X119.69 Y102.69 E35.67255
G1 X117.56 Y102.69 E35.79227
M204 S3000
G0 F4200 X117.933 Y102.49
M204 S1500
G1 F600 X117.758 Y102.315 E35.80618
M204 S3000
G0 F4200 X117.758 Y101.58
M204 S1500
G1 F600 X118.668 Y102.49 E35.87852
G1 X118.696 Y102.518
M204 S3000
G0 F4200 X119.404 Y102.49
M204 S1500
G1 F600 X117.758 Y100.844 E36.00937
G1 X117.73 Y100.816
M204 S3000
G0 F4200 X117.758 Y100.109
M204 S1500
G1 F600 X119.489 Y101.84 E36.14697
G1 X119.517 Y101.868
M204 S3000
G0 F4200 X119.489 Y101.104
M204 S1500
G1 F600 X117.758 Y99.373 E36.28457
G1 X117.73 Y99.345
M204 S3000
G0 F4200 X117.758 Y98.638
M204 S1500
G1 F600 X119.489 Y100.369 E36.42217
G1 X119.517 Y100.397
M204 S3000
G0 F4200 X119.489 Y99.634
M204 S1500
G1 F600 X117.758 Y97.903 E36.55977
G1 X117.73 Y97.875
M204 S3000
G0 F4200 X118.1 Y97.51
M204 S1500
G1 F600 X119.489 Y98.898 E36.67015
G1 X119.517 Y98.926
M204 S3000
G0 F4200 X119.489 Y98.163
M204 S1500
G1 F600 X118.836 Y97.51 E36.72206
M204 S3000
G1 F2700 E32.72206
G0 F4200 X116.042 Y104.297
G0 X115.441 Y104.501
G0 X114.763 Y104.451
G0 X114.386 Y104.297
G0 X113.441 Y94.716
G0 X110.903 Y95.311
G0 X110.899 Y104.297
G0 X110.298 Y104.501
G0 X109.621 Y104.451
G0 X109.244 Y104.297
G0 X108.298 Y94.716
G0 X105.76 Y95.311
G0 X105.756 Y104.297
G0 X105.155 Y104.501
G0 X104.478 Y104.451
G0 X104.101 Y104.297
G0 X103.158 Y94.716
G0 X100.617 Y95.311
G0 X100.613 Y104.297
G0 X100.017 Y104.5
G0 X99.339 Y104.453
G0 X98.959 Y104.298
G0 X97.672 Y100.392
G0 X89.733 Y99.995
M204 S1500
G1 F2400 E36.76363
G1 F600 X89.528 Y100.413 E36.7898
G1 X89.428 Y100.723 E36.80811
G1 X89.338 Y101.178 E36.83418
G1 X89.277 Y101.663 E36.86166
G1 X89.209 Y102.617 E36.91542
G1 X80.31 Y102.618 E37.41563
G1 X80.31 Y97.383 E37.70988
G1 X89.208 Y97.382 E38.21004
G1 X89.25 Y98 E38.24485
G1 X89.337 Y98.79 E38.28953
G1 X89.421 Y99.242 E38.31537
G1 X89.54 Y99.609 E38.33706
G1 X89.697 Y99.942 E38.35775
G1 X89.733 Y99.995 E38.36135
M204 S3000
G0 F4200 X88.757 Y97.582
M204 S1500
G1 F600 X89.041 Y97.865 E38.38389
M204 S3000
G0 F4200 X89.125 Y98.685
M204 S1500
G1 F600 X88.022 Y97.582 E38.47157
G1 X87.994 Y97.554
M204 S3000
G0 F4200 X87.286 Y97.582
M204 S1500
G1 F600 X89.337 Y99.633 E38.63461
G1 X89.365 Y99.661
M204 S3000
